;FLAVOR:Marlin
;TIME:6711
;Filament used: 7.99305m
;Layer height: 0.2
;MINX:61.53
;MINY:48.267
;MINZ:0.2
;MAXX:167.13
;MAXY:110.092
;MAXZ:25.5
;TARGET_MACHINE.NAME:Anycubic Kobra Plus
;Generated with Cura_SteamEngine 5.8.0
M140 S90
M105
M190 S90
M104 S245
M105
M109 S245
M82 ;absolute extrusion mode
G28 ;Home
G1 Z15.0 F6000 ;Move the platform down 15mm
;Prime the extruder
G92 E0
M355 S1; Turn LED on
; Add Custom purge lines
G1 Z2.0 F3000 ; Move Z Axis up little to prevent scratching of Heat Bed
G1 X1.0 Y30 Z0.3 F5000.0 ; Move to start position
G1 X1.0 Y100.0 Z0.3 F1500.0 E15 ; Draw the first line
G1 X1.3 Y100.0 Z0.3 F5000.0 ; Move to side a little
G1 X1.3 Y30 Z0.3 F1500.0 E30 ; Draw the second line
G92 E0 ; Reset Extruder
G1 E-2 F500 ; Retract a little 
G1 X50 F500 ; wipe away from the filament line
G1 X100 F9000 ; Quickly wipe away from the filament line
G1 Z5.0 F3000 ; Move Z Axis up little to prevent scratching of Heat Bed
; End custom purge lines
G92 E0
G92 E0
G1 F1500 E-6.5
;LAYER_COUNT:125
;LAYER:0
M107
M204 S1000
G1 F600 Z0.7
G0 F1800 X63.72 Y50.619 Z0.7
;TYPE:SKIRT
G1 F600 Z0.2
G1 F1500 E0
G1 F1200 X65.075 Y49.527 E0.05788
G1 X67.056 Y48.541 E0.13148
G1 X68.8 Y48.303 E0.19002
G1 X77.941 Y48.267 E0.49406
G1 X80.01 Y48.69 E0.56429
G1 X81.78 Y49.684 E0.63181
G1 X82.778 Y50.457 E0.6738
G1 X83.87 Y51.812 E0.73168
G1 X84.856 Y53.793 E0.80528
G1 X85.094 Y55.537 E0.86382
G1 X85.118 Y61.445 E1.06032
G1 X143.53 Y61.445 E3.00312
G1 X143.53 Y55.445 E3.20268
G1 X143.952 Y53.388 E3.27252
G1 X144.947 Y51.617 E3.34008
G1 X145.72 Y50.619 E3.38207
G1 X147.075 Y49.527 E3.43995
G1 X149.056 Y48.541 E3.51355
G1 X150.8 Y48.303 E3.57209
G1 X159.941 Y48.267 E3.87612
G1 X162.01 Y48.69 E3.94636
G1 X163.78 Y49.684 E4.01388
G1 X164.778 Y50.457 E4.05587
G1 X165.87 Y51.81 E4.1137
G1 X166.856 Y53.789 E4.18724
G1 X167.078 Y55.313 E4.23846
G1 X167.13 Y89.632 E5.37991
G1 X166.708 Y91.689 E5.44976
G1 X165.713 Y93.46 E5.51732
G1 X164.94 Y94.458 E5.55931
G1 X163.587 Y95.55 E5.61713
G1 X161.608 Y96.536 E5.69067
G1 X160.084 Y96.758 E5.7419
G1 X68.613 Y96.81 E8.78424
G1 X66.612 Y96.371 E8.85237
G1 X64.826 Y95.371 E8.92045
G1 X63.883 Y94.632 E8.9603
G1 X62.802 Y93.286 E9.01772
G1 X61.804 Y91.27 E9.09254
G1 X61.582 Y89.764 E9.14317
G1 X61.53 Y55.445 E10.28462
G1 X61.952 Y53.388 E10.35446
G1 X62.947 Y51.617 E10.42203
G1 X63.72 Y50.619 E10.46401
G0 F1800 X64.008 Y50.9
G1 F1200 X65.291 Y49.866 E10.51882
G1 X67.175 Y48.928 E10.58882
G1 X68.802 Y48.703 E10.64345
G1 X77.901 Y48.667 E10.94609
G1 X79.87 Y49.07 E11.01293
G1 X81.535 Y50 E11.07636
G1 X82.497 Y50.745 E11.11683
G1 X83.531 Y52.028 E11.17164
G1 X84.469 Y53.912 E11.24164
G1 X84.694 Y55.539 E11.29627
G1 X84.72 Y61.845 E11.50601
G1 X143.93 Y61.845 E13.47534
G1 X143.93 Y55.486 E13.68684
G1 X144.332 Y53.529 E13.75329
G1 X145.263 Y51.862 E13.8168
G1 X146.008 Y50.9 E13.85726
G1 X147.291 Y49.866 E13.91207
G1 X149.175 Y48.928 E13.98207
G1 X150.802 Y48.703 E14.0367
G1 X159.901 Y48.667 E14.33933
G1 X161.87 Y49.07 E14.40618
G1 X163.535 Y50 E14.46961
G1 X164.497 Y50.745 E14.51008
G1 X165.531 Y52.027 E14.56486
G1 X166.469 Y53.909 E14.6348
G1 X166.682 Y55.371 E14.68394
G1 X166.73 Y89.591 E15.8221
G1 X166.328 Y91.548 E15.88855
G1 X165.397 Y93.215 E15.95206
G1 X164.652 Y94.177 E15.99253
G1 X163.37 Y95.211 E16.04731
G1 X161.488 Y96.149 E16.11725
G1 X160.026 Y96.362 E16.16639
G1 X68.658 Y96.41 E19.2053
G1 X66.754 Y95.992 E19.27014
G1 X65.073 Y95.056 E19.33413
G1 X64.167 Y94.346 E19.37241
G1 X63.138 Y93.065 E19.42706
G1 X62.191 Y91.152 E19.49806
G1 X61.978 Y89.706 E19.54667
G1 X61.93 Y55.486 E20.68483
G1 X62.332 Y53.529 E20.75128
G1 X63.263 Y51.862 E20.81479
G1 X64.008 Y50.9 E20.85526
G0 F1800 X64.296 Y51.181
G1 F1200 X65.507 Y50.205 E20.90699
G1 X67.294 Y49.315 E20.97339
G1 X68.804 Y49.103 E21.0241
G1 X77.861 Y49.067 E21.32534
G1 X79.729 Y49.449 E21.38876
G1 X81.29 Y50.316 E21.44815
G1 X82.216 Y51.033 E21.4871
G1 X83.192 Y52.244 E21.53883
G1 X84.082 Y54.031 E21.60523
G1 X84.294 Y55.541 E21.65595
G1 X84.322 Y62.245 E21.87892
G1 X144.33 Y62.245 E23.8748
G1 X144.33 Y55.528 E24.09821
G1 X144.712 Y53.67 E24.1613
G1 X145.579 Y52.107 E24.22075
G1 X146.296 Y51.181 E24.2597
G1 X147.507 Y50.205 E24.31143
G1 X149.294 Y49.315 E24.37783
G1 X150.804 Y49.103 E24.42854
G1 X159.861 Y49.067 E24.72978
G1 X161.729 Y49.449 E24.7932
G1 X163.29 Y50.316 E24.85259
G1 X164.216 Y51.033 E24.89154
G1 X165.192 Y52.244 E24.94327
G1 X166.082 Y54.029 E25.00961
G1 X166.286 Y55.429 E25.05667
G1 X166.33 Y89.549 E26.1915
G1 X165.948 Y91.407 E26.25459
G1 X165.081 Y92.97 E26.31404
G1 X164.364 Y93.896 E26.35299
G1 X163.153 Y94.872 E26.40472
G1 X161.368 Y95.762 E26.47106
G1 X159.968 Y95.966 E26.51812
G1 X68.703 Y96.01 E29.55361
G1 X66.897 Y95.613 E29.61511
G1 X65.32 Y94.741 E29.67504
G1 X64.451 Y94.06 E29.71177
G1 X63.474 Y92.844 E29.76365
G1 X62.578 Y91.034 E29.83082
G1 X62.374 Y89.648 E29.87742
G1 X62.33 Y55.528 E31.01225
G1 X62.712 Y53.67 E31.07534
G1 X63.579 Y52.107 E31.13479
G1 X64.296 Y51.181 E31.17374
G0 F1800 X64.581 Y51.465
G1 F1200 X65.727 Y50.542 E31.22268
G1 X67.413 Y49.702 E31.28533
G1 X68.806 Y49.503 E31.33214
G1 X77.821 Y49.467 E31.63198
G1 X79.588 Y49.829 E31.69197
G1 X81.096 Y50.666 E31.74933
G1 X81.932 Y51.318 E31.7846
G1 X82.855 Y52.464 E31.83354
G1 X83.695 Y54.15 E31.89619
G1 X83.894 Y55.543 E31.94299
G1 X83.924 Y62.645 E32.17921
G1 X144.73 Y62.645 E34.20162
G1 X144.73 Y55.57 E34.43694
G1 X145.092 Y53.81 E34.4967
G1 X145.929 Y52.301 E34.55409
G1 X146.581 Y51.465 E34.58936
G1 X147.727 Y50.542 E34.6383
G1 X149.413 Y49.702 E34.70095
G1 X150.806 Y49.503 E34.74775
G1 X159.821 Y49.467 E35.04759
G1 X161.588 Y49.829 E35.10758
G1 X163.096 Y50.666 E35.16495
G1 X163.932 Y51.318 E35.20021
G1 X164.855 Y52.464 E35.24915
G1 X165.695 Y54.149 E35.31177
G1 X165.89 Y55.487 E35.35674
G1 X165.93 Y89.507 E36.48826
G1 X165.568 Y91.267 E36.54802
G1 X164.731 Y92.776 E36.60541
G1 X164.079 Y93.612 E36.64067
G1 X162.933 Y94.535 E36.68962
G1 X161.248 Y95.375 E36.75224
G1 X159.91 Y95.57 E36.79721
G1 X68.748 Y95.61 E39.82927
G1 X67.039 Y95.234 E39.88747
G1 X65.567 Y94.426 E39.94332
G1 X64.735 Y93.774 E39.97848
G1 X63.813 Y92.627 E40.02742
G1 X62.965 Y90.913 E40.09103
G1 X62.77 Y89.59 E40.13551
G1 X62.73 Y55.57 E41.26702
G1 X63.092 Y53.81 E41.32678
G1 X63.929 Y52.301 E41.38417
G1 X64.581 Y51.465 E41.41944
G0 F1800 X64.865 Y51.75
G1 F1200 X65.947 Y50.879 E41.46563
G1 X67.532 Y50.089 E41.52454
G1 X68.808 Y49.903 E41.56743
G1 X77.781 Y49.867 E41.86587
G1 X79.447 Y50.209 E41.92244
G1 X80.902 Y51.016 E41.97778
G1 X81.647 Y51.602 E42.0093
G1 X82.518 Y52.684 E42.0555
G1 X83.308 Y54.269 E42.1144
G1 X83.494 Y55.545 E42.15729
G1 X83.526 Y63.045 E42.40675
G1 X145.13 Y63.045 E44.4557
G1 X145.13 Y55.612 E44.70293
G1 X145.472 Y53.95 E44.75936
G1 X146.279 Y52.495 E44.8147
G1 X146.865 Y51.75 E44.84623
G1 X147.947 Y50.879 E44.89242
G1 X149.532 Y50.089 E44.95133
G1 X150.808 Y49.903 E44.99422
G1 X159.781 Y49.867 E45.29266
G1 X161.447 Y50.209 E45.34923
G1 X162.902 Y51.016 E45.40457
G1 X163.647 Y51.602 E45.43609
G1 X164.518 Y52.684 E45.48229
G1 X165.308 Y54.269 E45.54119
G1 X165.494 Y55.545 E45.58408
G1 X165.53 Y89.465 E46.71227
G1 X165.188 Y91.127 E46.7687
G1 X164.381 Y92.582 E46.82404
G1 X163.795 Y93.327 E46.85557
G1 X162.713 Y94.198 E46.90177
G1 X161.128 Y94.988 E46.96067
G1 X159.852 Y95.174 E47.00356
G1 X68.793 Y95.21 E50.03219
G1 X67.179 Y94.855 E50.08716
G1 X65.814 Y94.111 E50.13886
G1 X65.016 Y93.486 E50.17258
G1 X64.151 Y92.409 E50.21852
G1 X63.352 Y90.795 E50.27842
G1 X63.166 Y89.532 E50.32088
G1 X63.13 Y55.612 E51.44907
G1 X63.472 Y53.95 E51.5055
G1 X64.279 Y52.495 E51.56084
G1 X64.865 Y51.75 E51.59237
G0 F1800 X65.15 Y52.035
G1 F1200 X66.165 Y51.218 E51.6357
G1 X67.653 Y50.476 E51.69101
G1 X68.866 Y50.299 E51.73178
G1 X77.74 Y50.267 E52.02693
G1 X79.307 Y50.589 E52.08014
G1 X80.708 Y51.366 E52.13342
G1 X81.362 Y51.887 E52.16123
G1 X82.179 Y52.902 E52.20457
G1 X82.921 Y54.39 E52.25987
G1 X83.098 Y55.603 E52.30064
G1 X83.127 Y63.445 E52.56147
G1 X145.53 Y63.445 E54.637
G1 X145.53 Y55.654 E54.89613
G1 X145.852 Y54.09 E54.94924
G1 X146.629 Y52.689 E55.00253
G1 X147.15 Y52.035 E55.03034
G1 X148.165 Y51.218 E55.07368
G1 X149.653 Y50.476 E55.12898
G1 X150.866 Y50.299 E55.16975
G1 X159.74 Y50.267 E55.4649
G1 X161.307 Y50.589 E55.51811
G1 X162.708 Y51.366 E55.57139
G1 X163.362 Y51.887 E55.5992
G1 X164.179 Y52.902 E55.64254
G1 X164.921 Y54.39 E55.69784
G1 X165.098 Y55.603 E55.73862
G1 X165.13 Y89.423 E56.86347
G1 X164.808 Y90.987 E56.91658
G1 X164.031 Y92.388 E56.96987
G1 X163.51 Y93.042 E56.99768
G1 X162.495 Y93.859 E57.04102
G1 X161.007 Y94.601 E57.09632
G1 X159.794 Y94.778 E57.13709
G1 X68.838 Y94.81 E60.1623
G1 X67.319 Y94.476 E60.21403
G1 X66.061 Y93.796 E60.26159
G1 X65.3 Y93.2 E60.29374
G1 X64.487 Y92.188 E60.33692
G1 X63.739 Y90.677 E60.39299
G1 X63.562 Y89.474 E60.43344
G1 X63.53 Y55.654 E61.55829
G1 X63.852 Y54.09 E61.6114
G1 X64.629 Y52.689 E61.66469
G1 X65.15 Y52.035 E61.6925
G0 F1800 X65.434 Y52.321
G1 F1200 X66.385 Y51.555 E61.73311
G1 X67.773 Y50.863 E61.7847
G1 X68.924 Y50.695 E61.82339
G1 X77.699 Y50.667 E62.11525
G1 X79.168 Y50.969 E62.16513
G1 X80.459 Y51.679 E62.21413
G1 X81.076 Y52.171 E62.24038
G1 X81.842 Y53.122 E62.28099
G1 X82.534 Y54.51 E62.33258
G1 X82.702 Y55.661 E62.37127
G1 X82.728 Y63.845 E62.64347
G1 X145.93 Y63.845 E64.74557
G1 X145.93 Y55.696 E65.01661
G1 X146.232 Y54.229 E65.06643
G1 X146.942 Y52.938 E65.11543
G1 X147.434 Y52.321 E65.14168
G1 X148.385 Y51.555 E65.18229
G1 X149.773 Y50.863 E65.23388
G1 X150.924 Y50.695 E65.27257
G1 X159.699 Y50.667 E65.56443
G1 X161.168 Y50.969 E65.61431
G1 X162.459 Y51.679 E65.66331
G1 X163.076 Y52.171 E65.68956
G1 X163.842 Y53.122 E65.73017
G1 X164.534 Y54.51 E65.78176
G1 X164.702 Y55.661 E65.82044
G1 X164.73 Y89.381 E66.94198
G1 X164.428 Y90.848 E66.99179
G1 X163.718 Y92.139 E67.0408
G1 X163.226 Y92.756 E67.06704
G1 X162.275 Y93.522 E67.10766
G1 X160.887 Y94.214 E67.15924
G1 X159.736 Y94.382 E67.19793
G1 X68.883 Y94.41 E70.21971
G1 X67.46 Y94.097 E70.26817
G1 X66.308 Y93.481 E70.31162
G1 X65.584 Y92.914 E70.34221
G1 X64.823 Y91.967 E70.38262
G1 X64.126 Y90.559 E70.43487
G1 X63.958 Y89.416 E70.4733
G1 X63.93 Y55.696 E71.59483
G1 X64.232 Y54.229 E71.64464
G1 X64.942 Y52.938 E71.69365
G1 X65.434 Y52.321 E71.7199
G0 F1800 X65.72 Y52.604
G1 F1200 X66.601 Y51.894 E71.75753
G1 X67.893 Y51.25 E71.80554
G1 X68.982 Y51.091 E71.84215
G1 X77.658 Y51.067 E72.13071
G1 X79.03 Y51.349 E72.1773
G1 X80.21 Y51.992 E72.222
G1 X80.793 Y52.457 E72.2468
G1 X81.503 Y53.338 E72.28443
G1 X82.147 Y54.63 E72.33245
G1 X82.306 Y55.719 E72.36905
G1 X82.329 Y64.245 E72.65263
G1 X146.33 Y64.245 E74.78131
G1 X146.33 Y55.738 E75.06425
G1 X146.612 Y54.367 E75.11081
G1 X147.255 Y53.187 E75.1555
G1 X147.72 Y52.604 E75.18031
G1 X148.601 Y51.894 E75.21794
G1 X149.893 Y51.25 E75.26596
G1 X150.982 Y51.091 E75.30256
G1 X159.658 Y51.067 E75.59113
G1 X161.03 Y51.349 E75.63771
G1 X162.21 Y51.992 E75.68241
G1 X162.793 Y52.457 E75.70721
G1 X163.503 Y53.338 E75.74484
G1 X164.147 Y54.63 E75.79286
G1 X164.306 Y55.719 E75.82946
G1 X164.33 Y89.339 E76.94767
G1 X164.048 Y90.71 E76.99422
G1 X163.405 Y91.89 E77.03892
G1 X162.94 Y92.473 E77.06372
G1 X162.059 Y93.183 E77.10136
G1 X160.767 Y93.827 E77.14937
G1 X159.678 Y93.986 E77.18597
G1 X68.928 Y94.01 E80.20433
G1 X67.6 Y93.718 E80.24956
G1 X66.497 Y93.128 E80.29116
G1 X65.869 Y92.629 E80.31784
G1 X65.159 Y91.746 E80.35552
G1 X64.513 Y90.441 E80.40396
G1 X64.354 Y89.358 E80.44036
G1 X64.33 Y55.738 E81.55857
G1 X64.612 Y54.367 E81.60512
G1 X65.255 Y53.187 E81.64982
G1 X65.72 Y52.604 E81.67462
G0 F1800 X66.004 Y52.889
G1 F1200 X66.821 Y52.231 E81.70951
G1 X68.013 Y51.637 E81.75381
G1 X69.04 Y51.487 E81.78833
G1 X77.617 Y51.467 E82.0736
G1 X78.892 Y51.729 E82.11689
G1 X79.961 Y52.305 E82.15728
G1 X80.508 Y52.741 E82.18055
G1 X81.166 Y53.558 E82.21544
G1 X81.76 Y54.75 E82.25974
G1 X81.91 Y55.777 E82.29426
G1 X81.93 Y64.645 E82.58921
G1 X146.73 Y64.645 E84.74446
G1 X146.73 Y55.78 E85.03932
G1 X146.992 Y54.505 E85.08261
G1 X147.568 Y53.436 E85.123
G1 X148.004 Y52.889 E85.14626
G1 X148.821 Y52.231 E85.18115
G1 X150.013 Y51.637 E85.22545
G1 X151.04 Y51.487 E85.25997
G1 X159.617 Y51.467 E85.54524
G1 X160.892 Y51.729 E85.58853
G1 X161.961 Y52.305 E85.62892
G1 X162.508 Y52.741 E85.65219
G1 X163.166 Y53.558 E85.68708
G1 X163.76 Y54.75 E85.73137
G1 X163.91 Y55.777 E85.7659
G1 X163.93 Y89.297 E86.88078
G1 X163.668 Y90.572 E86.92407
G1 X163.092 Y91.641 E86.96446
G1 X162.656 Y92.188 E86.98772
G1 X161.839 Y92.846 E87.02261
G1 X160.647 Y93.44 E87.06691
G1 X159.62 Y93.59 E87.10143
G1 X68.973 Y93.61 E90.11636
G1 X67.74 Y93.339 E90.15835
G1 X66.686 Y92.775 E90.19811
G1 X66.155 Y92.346 E90.22081
G1 X65.495 Y91.525 E90.25585
G1 X64.9 Y90.323 E90.30046
G1 X64.75 Y89.3 E90.33485
G1 X64.73 Y55.78 E91.44973
G1 X64.992 Y54.505 E91.49302
G1 X65.568 Y53.436 E91.53341
G1 X66.004 Y52.889 E91.55667
G0 F1800 X66.286 Y53.176
G1 F1200 X67.041 Y52.568 E91.58891
G1 X68.133 Y52.024 E91.62949
G1 X69.098 Y51.883 E91.66193
G1 X77.576 Y51.867 E91.94391
G1 X78.754 Y52.109 E91.98391
G1 X79.771 Y52.657 E92.02233
G1 X80.221 Y53.023 E92.04162
G1 X80.829 Y53.778 E92.07387
G1 X81.373 Y54.87 E92.11444
G1 X81.514 Y55.835 E92.14688
G1 X81.53 Y64.883 E92.44782
G1 X81.564 Y65.045 E92.45332
G1 X147.093 Y65.045 E94.63283
G1 X147.13 Y64.867 E94.63887
G1 X147.13 Y55.821 E94.93974
G1 X147.372 Y54.643 E94.97974
G1 X147.92 Y53.626 E95.01817
G1 X148.286 Y53.176 E95.03746
G1 X149.041 Y52.568 E95.0697
G1 X150.133 Y52.024 E95.11028
G1 X151.098 Y51.883 E95.14271
G1 X159.576 Y51.867 E95.42469
G1 X160.754 Y52.109 E95.46469
G1 X161.771 Y52.657 E95.50312
G1 X162.221 Y53.023 E95.52241
G1 X162.829 Y53.778 E95.55465
G1 X163.373 Y54.87 E95.59523
G1 X163.514 Y55.835 E95.62767
G1 X163.53 Y89.256 E96.73925
G1 X163.288 Y90.434 E96.77925
G1 X162.74 Y91.451 E96.81767
G1 X162.374 Y91.901 E96.83697
G1 X161.619 Y92.509 E96.86921
G1 X160.527 Y93.053 E96.90979
G1 X159.562 Y93.194 E96.94222
G1 X69.018 Y93.21 E99.95373
G1 X67.88 Y92.96 E99.99248
G1 X66.908 Y92.44 E100.02915
G1 X66.441 Y92.062 E100.04913
G1 X65.831 Y91.304 E100.08149
G1 X65.287 Y90.205 E100.12228
G1 X65.146 Y89.242 E100.15465
G1 X65.13 Y55.821 E101.26623
G1 X65.372 Y54.643 E101.30623
G1 X65.92 Y53.626 E101.34466
G1 X66.286 Y53.176 E101.36395
G0 F1800 X66.537 Y53.488
G1 F1200 X67.261 Y52.905 E101.39487
G1 X68.253 Y52.411 E101.43172
G1 X69.156 Y52.279 E101.46208
G1 X77.535 Y52.267 E101.74076
G1 X78.616 Y52.489 E101.77747
G1 X79.524 Y52.972 E101.81168
G1 X79.909 Y53.274 E101.82795
G1 X80.492 Y53.998 E101.85887
G1 X80.986 Y54.99 E101.89573
G1 X81.118 Y55.893 E101.92608
G1 X81.13 Y64.923 E102.22642
G1 X81.24 Y65.445 E102.24416
G1 X147.417 Y65.445 E104.44522
G1 X147.53 Y64.906 E104.46353
G1 X147.53 Y55.862 E104.76434
G1 X147.752 Y54.781 E104.80104
G1 X148.235 Y53.873 E104.83525
G1 X148.537 Y53.488 E104.85153
G1 X149.261 Y52.905 E104.88244
G1 X150.253 Y52.411 E104.9193
G1 X151.156 Y52.279 E104.94965
G1 X159.535 Y52.267 E105.22834
G1 X160.616 Y52.489 E105.26505
G1 X161.524 Y52.972 E105.29925
G1 X161.909 Y53.274 E105.31553
G1 X162.492 Y53.998 E105.34644
G1 X162.986 Y54.99 E105.3833
G1 X163.118 Y55.893 E105.41366
G1 X163.13 Y89.215 E106.52195
G1 X162.908 Y90.296 E106.55866
G1 X162.425 Y91.204 E106.59286
G1 X162.123 Y91.589 E106.60914
G1 X161.399 Y92.172 E106.64005
G1 X160.407 Y92.666 E106.67691
G1 X159.504 Y92.798 E106.70727
G1 X69.063 Y92.81 E109.71535
G1 X68.02 Y92.581 E109.75086
G1 X67.097 Y92.087 E109.78568
G1 X66.728 Y91.78 E109.80165
G1 X66.169 Y91.085 E109.83131
G1 X65.674 Y90.086 E109.86839
G1 X65.542 Y89.184 E109.89871
G1 X65.53 Y55.862 E111.00701
G1 X65.752 Y54.781 E111.04371
G1 X66.235 Y53.873 E111.07792
G1 X66.537 Y53.488 E111.0942
G0 F1800 X66.788 Y53.8
G1 F1200 X67.481 Y53.242 E111.12379
G1 X68.373 Y52.798 E111.15693
G1 X69.214 Y52.675 E111.1852
G1 X77.494 Y52.667 E111.46059
G1 X78.48 Y52.869 E111.49407
G1 X79.285 Y53.293 E111.52433
G1 X79.597 Y53.525 E111.53726
G1 X80.155 Y54.218 E111.56685
G1 X80.599 Y55.11 E111.59999
G1 X80.722 Y55.951 E111.62826
G1 X80.73 Y64.962 E111.92797
G1 X80.916 Y65.845 E111.95798
