;FLAVOR:Marlin
;TIME:7243
;Filament used: 7.0967m
;Layer height: 0.2
;MINX:49.089
;MINY:210.495
;MINZ:0.2
;MAXX:133.946
;MAXY:234.695
;MAXZ:54.7
;TARGET_MACHINE.NAME:Anycubic Kobra Plus
;Generated with Cura_SteamEngine 5.8.0
M140 S75
M105
M190 S75
M104 S235
M105
M109 S235
M82 ;absolute extrusion mode
G28 ;Home
G1 Z15.0 F6000 ;Move the platform down 15mm
;Prime the extruder
G92 E0
M355 S1; Turn LED on
; Add Custom purge lines
G1 Z2.0 F3000 ; Move Z Axis up little to prevent scratching of Heat Bed
G1 X1.0 Y30 Z0.3 F5000.0 ; Move to start position
G1 X1.0 Y100.0 Z0.3 F1500.0 E15 ; Draw the first line
G1 X1.3 Y100.0 Z0.3 F5000.0 ; Move to side a little
G1 X1.3 Y30 Z0.3 F1500.0 E30 ; Draw the second line
G92 E0 ; Reset Extruder
G1 E-2 F500 ; Retract a little 
G1 X50 F500 ; wipe away from the filament line
G1 X100 F9000 ; Quickly wipe away from the filament line
G1 Z5.0 F3000 ; Move Z Axis up little to prevent scratching of Heat Bed
; End custom purge lines
G92 E0
G92 E0
G1 F1500 E-6.5
;LAYER_COUNT:273
;LAYER:0
M107
G1 F600 Z0.3
G0 F1800 X52.421 Y210.619 Z0.3
;TYPE:SKIRT
G1 F600 Z0.2
G1 F1500 E0
G1 F1200 X53.06 Y210.507 E0.02158
G1 X53.844 Y210.495 E0.04766
G1 X58.036 Y210.495 E0.18708
G1 X58.906 Y210.509 E0.21602
G1 X60.804 Y210.704 E0.27948
G1 X63.586 Y210.94 E0.37234
G1 X66.275 Y211.089 E0.46192
G1 X69.027 Y211.164 E0.55348
G1 X71.722 Y211.162 E0.64312
G1 X74.477 Y211.081 E0.73479
G1 X77.197 Y210.926 E0.82541
G1 X79.898 Y210.692 E0.91558
G1 X81.474 Y210.523 E0.9683
G1 X82.072 Y210.497 E0.98821
G1 X100.55 Y210.495 E1.60279
G1 X101.413 Y210.509 E1.63149
G1 X103.114 Y210.682 E1.68836
G1 X105.842 Y210.915 E1.77942
G1 X108.569 Y211.07 E1.87027
G1 X111.321 Y211.149 E1.96184
G1 X114.017 Y211.149 E2.05151
G1 X116.768 Y211.072 E2.14304
G1 X119.461 Y210.92 E2.23276
G1 X122.22 Y210.686 E2.32485
G1 X123.759 Y210.522 E2.37633
G1 X124.344 Y210.496 E2.3958
G1 X129.073 Y210.495 E2.55309
G1 X129.773 Y210.505 E2.57638
G1 X130.37 Y210.565 E2.59633
G1 X130.92 Y210.711 E2.61526
G1 X131.383 Y210.913 E2.63206
G1 X131.865 Y211.215 E2.65098
G1 X132.338 Y211.634 E2.672
G1 X132.693 Y212.076 E2.69085
G1 X132.976 Y212.57 E2.70979
G1 X133.206 Y213.177 E2.73138
G1 X133.368 Y213.96 E2.75797
G1 X133.591 Y215.193 E2.79965
G1 X133.669 Y216.048 E2.8282
G1 X133.85 Y217.794 E2.88658
G1 X133.924 Y218.636 E2.9147
G1 X133.946 Y219.386 E2.93965
G1 X133.946 Y225.603 E3.14643
G1 X133.933 Y226.413 E3.17338
G1 X133.822 Y227.494 E3.20952
G1 X133.706 Y228.839 E3.25442
G1 X133.592 Y229.99 E3.29289
G1 X133.389 Y231.109 E3.33072
G1 X133.244 Y231.813 E3.35462
G1 X133.073 Y232.387 E3.37454
G1 X132.826 Y232.899 E3.39345
G1 X132.502 Y233.366 E3.41235
G1 X132.108 Y233.777 E3.43129
G1 X131.707 Y234.085 E3.44811
G1 X131.152 Y234.387 E3.46912
G1 X130.614 Y234.571 E3.48804
G1 X129.975 Y234.683 E3.50961
G1 X129.191 Y234.695 E3.53569
G1 X124.759 Y234.695 E3.6831
G1 X123.893 Y234.681 E3.71191
G1 X122.339 Y234.522 E3.76386
G1 X119.59 Y234.283 E3.85564
G1 X116.864 Y234.126 E3.94646
G1 X114.111 Y234.043 E4.03806
G1 X111.416 Y234.039 E4.1277
G1 X108.662 Y234.113 E4.21933
G1 X105.976 Y234.261 E4.3088
G1 X103.209 Y234.492 E4.40116
G1 X101.555 Y234.667 E4.45647
G1 X100.962 Y234.693 E4.47622
G1 X82.484 Y234.695 E5.0908
G1 X81.617 Y234.681 E5.11964
G1 X79.673 Y234.481 E5.18464
G1 X76.901 Y234.248 E5.27716
G1 X74.204 Y234.099 E5.367
G1 X71.456 Y234.025 E5.45843
G1 X68.76 Y234.029 E5.5481
G1 X66.005 Y234.111 E5.63977
G1 X63.304 Y234.266 E5.72976
G1 X59.012 Y234.671 E5.87314
G1 X58.457 Y234.694 E5.89162
G1 X53.961 Y234.695 E6.04115
G1 X53.263 Y234.685 E6.06437
G1 X52.666 Y234.625 E6.08433
G1 X52.116 Y234.479 E6.10326
G1 X51.652 Y234.277 E6.12009
G1 X51.171 Y233.975 E6.13898
G1 X50.698 Y233.556 E6.15999
G1 X50.343 Y233.114 E6.17885
G1 X50.06 Y232.62 E6.19779
G1 X49.829 Y232.007 E6.21957
G1 X49.582 Y230.778 E6.26127
G1 X49.443 Y229.982 E6.28814
G1 X49.365 Y229.128 E6.31667
G1 X49.189 Y227.419 E6.37381
G1 X49.112 Y226.557 E6.40259
G1 X49.089 Y225.95 E6.4228
G1 X49.089 Y219.586 E6.63446
G1 X49.101 Y218.766 E6.66174
G1 X49.204 Y217.574 E6.70153
G1 X49.314 Y216.584 E6.73466
G1 X49.445 Y215.185 E6.7814
G1 X49.64 Y214.113 E6.81764
G1 X49.799 Y213.346 E6.84369
G1 X49.962 Y212.803 E6.86255
G1 X50.209 Y212.289 E6.88151
G1 X50.533 Y211.824 E6.90036
G1 X50.927 Y211.413 E6.9193
G1 X51.328 Y211.105 E6.93612
G1 X51.883 Y210.803 E6.95713
G1 X52.421 Y210.619 E6.97605
G0 F1800 X52.493 Y211.012
G1 F1200 X53.066 Y210.907 E6.99542
G1 X53.85 Y210.895 E7.0215
G1 X58.03 Y210.895 E7.16053
G1 X58.865 Y210.907 E7.1883
G1 X60.77 Y211.103 E7.252
G1 X63.552 Y211.338 E7.34486
G1 X66.264 Y211.489 E7.4352
G1 X69.016 Y211.564 E7.52676
G1 X71.734 Y211.562 E7.61716
G1 X74.489 Y211.481 E7.70884
G1 X77.231 Y211.324 E7.80018
G1 X79.932 Y211.091 E7.89035
G1 X81.492 Y210.923 E7.94254
G1 X82.072 Y210.897 E7.96185
G1 X100.544 Y210.895 E8.57623
G1 X101.372 Y210.907 E8.60377
G1 X103.08 Y211.081 E8.66088
G1 X105.808 Y211.313 E8.75194
G1 X108.558 Y211.47 E8.84355
G1 X111.31 Y211.549 E8.93512
G1 X114.028 Y211.549 E9.02552
G1 X116.779 Y211.472 E9.11706
G1 X119.495 Y211.319 E9.20753
G1 X122.254 Y211.085 E9.29963
G1 X123.777 Y210.922 E9.35057
G1 X124.344 Y210.896 E9.36945
G1 X129.067 Y210.895 E9.52654
G1 X129.767 Y210.905 E9.54982
G1 X130.27 Y210.952 E9.56663
G1 X130.76 Y211.078 E9.58345
G1 X131.223 Y211.28 E9.60025
G1 X131.65 Y211.552 E9.61709
G1 X132.028 Y211.887 E9.63389
G1 X132.348 Y212.278 E9.6507
G1 X132.603 Y212.715 E9.66753
G1 X132.814 Y213.258 E9.6869
G1 X132.974 Y214.031 E9.71316
G1 X133.197 Y215.264 E9.75483
G1 X133.271 Y216.089 E9.78238
G1 X133.452 Y217.829 E9.84057
G1 X133.524 Y218.648 E9.86791
G1 X133.546 Y219.398 E9.89287
G1 X133.546 Y225.597 E10.09905
G1 X133.535 Y226.372 E10.12483
G1 X133.424 Y227.453 E10.16097
G1 X133.308 Y228.8 E10.20594
G1 X133.198 Y229.919 E10.24333
G1 X132.997 Y231.028 E10.28082
G1 X132.852 Y231.732 E10.30473
G1 X132.711 Y232.217 E10.32153
G1 X132.496 Y232.674 E10.33832
G1 X132.211 Y233.092 E10.35515
G1 X131.864 Y233.46 E10.37197
G1 X131.463 Y233.768 E10.38879
G1 X131.019 Y234.01 E10.40561
G1 X130.542 Y234.178 E10.42243
G1 X129.969 Y234.283 E10.44181
G1 X129.185 Y234.295 E10.46788
G1 X124.765 Y234.295 E10.61489
G1 X123.934 Y234.283 E10.64254
G1 X122.374 Y234.123 E10.69469
G1 X119.625 Y233.885 E10.78647
G1 X116.876 Y233.726 E10.87805
G1 X114.123 Y233.643 E10.96966
G1 X111.406 Y233.639 E11.06003
G1 X108.651 Y233.713 E11.15169
G1 X105.943 Y233.862 E11.2419
G1 X103.176 Y234.093 E11.33425
G1 X101.537 Y234.267 E11.38907
G1 X100.962 Y234.293 E11.40821
G1 X82.49 Y234.295 E12.02259
G1 X81.658 Y234.283 E12.05027
G1 X79.706 Y234.082 E12.11554
G1 X76.934 Y233.85 E12.20806
G1 X74.215 Y233.699 E12.29863
G1 X71.466 Y233.625 E12.39009
G1 X68.748 Y233.629 E12.4805
G1 X65.993 Y233.711 E12.57217
G1 X63.27 Y233.868 E12.66289
G1 X58.995 Y234.271 E12.8057
G1 X58.457 Y234.294 E12.82361
G1 X53.967 Y234.295 E12.97295
G1 X53.269 Y234.285 E12.99617
G1 X52.766 Y234.238 E13.01297
G1 X52.276 Y234.112 E13.0298
G1 X51.812 Y233.91 E13.04663
G1 X51.386 Y233.638 E13.06344
G1 X51.008 Y233.303 E13.08024
G1 X50.688 Y232.912 E13.09705
G1 X50.433 Y232.475 E13.11387
G1 X50.221 Y231.928 E13.13339
G1 X49.976 Y230.709 E13.17474
G1 X49.837 Y229.913 E13.20162
G1 X49.763 Y229.087 E13.2292
G1 X49.587 Y227.383 E13.28618
G1 X49.512 Y226.542 E13.31426
G1 X49.489 Y225.935 E13.33446
G1 X49.489 Y219.592 E13.54543
G1 X49.501 Y218.772 E13.57271
G1 X49.602 Y217.618 E13.61124
G1 X49.711 Y216.628 E13.64436
G1 X49.839 Y215.256 E13.69019
G1 X50.032 Y214.193 E13.72613
G1 X50.183 Y213.458 E13.75108
G1 X50.324 Y212.973 E13.76788
G1 X50.539 Y212.515 E13.78471
G1 X50.824 Y212.098 E13.80151
G1 X51.171 Y211.73 E13.81833
G1 X51.572 Y211.422 E13.83515
G1 X52.016 Y211.18 E13.85197
G1 X52.493 Y211.012 E13.86879
G1 F1500 E7.36879
G1 F600 Z0.3
G0 F1800 X53.474 Y214.295 Z0.3
G1 F600 Z0.2
G1 F1500 E13.86879
G1 F1200 X58.492 Y214.295 E14.03569
G1 X58.492 Y214.936 E14.05701
G1 X58.416 Y215.056 E14.06173
G1 X58.254 Y215.863 E14.08911
G1 X58.25 Y215.896 E14.09022
G1 X58.169 Y218.398 E14.17348
G1 X58.169 Y218.404 E14.17368
G1 X58.183 Y228.708 E14.51639
G1 X58.184 Y228.729 E14.51709
G1 X58.262 Y229.469 E14.54184
G1 X58.265 Y229.49 E14.54254
G1 X58.404 Y230.137 E14.56455
G1 X58.468 Y230.245 E14.56873
G1 X58.491 Y230.254 E14.56955
G1 X58.491 Y230.895 E14.59087
G1 X53.472 Y230.895 E14.7578
G1 X53.202 Y229.478 E14.80578
G1 X53.202 Y228.721 E14.83096
G1 X53.2 Y228.693 E14.83189
G1 X52.972 Y227.071 E14.88637
G1 X52.889 Y226.253 E14.91372
G1 X52.889 Y218.941 E15.15691
G1 X52.987 Y217.997 E15.18848
G1 X53.2 Y216.476 E15.23956
G1 X53.202 Y216.448 E15.2405
G1 X53.202 Y215.713 E15.26494
G1 X53.474 Y214.295 E15.31296
G0 F1800 X53.805 Y214.695
G1 F1200 X58.092 Y214.695 E15.45555
G1 X58.092 Y214.803 E15.45914
G1 X58.078 Y214.821 E15.4599
G1 X58.024 Y214.977 E15.46539
G1 X57.862 Y215.784 E15.49277
G1 X57.85 Y215.883 E15.49609
G1 X57.769 Y218.385 E15.57935
G1 X57.769 Y218.405 E15.58001
G1 X57.783 Y228.709 E15.92272
G1 X57.786 Y228.771 E15.92479
G1 X57.864 Y229.511 E15.94954
G1 X57.874 Y229.574 E15.95166
G1 X58.013 Y230.221 E15.97367
G1 X58.091 Y230.408 E15.98041
G1 X58.091 Y230.495 E15.9833
G1 X53.803 Y230.495 E16.12592
G1 X53.602 Y229.44 E16.16164
G1 X53.602 Y228.721 E16.18556
G1 X53.596 Y228.637 E16.18836
G1 X53.37 Y227.032 E16.24227
G1 X53.289 Y226.232 E16.26901
G1 X53.289 Y218.963 E16.51078
G1 X53.386 Y218.031 E16.54194
G1 X53.596 Y216.531 E16.59232
G1 X53.602 Y216.448 E16.59509
G1 X53.602 Y215.752 E16.61824
G1 X53.805 Y214.695 E16.65404
G0 F1800 X54.135 Y215.095
G1 F1200 X57.592 Y215.095 E16.76902
G1 X57.47 Y215.705 E16.78971
G1 X57.451 Y215.87 E16.79523
G1 X57.37 Y218.372 E16.87849
G1 X57.369 Y218.405 E16.87959
G1 X57.383 Y228.709 E17.2223
G1 X57.389 Y228.813 E17.22577
G1 X57.467 Y229.553 E17.25052
G1 X57.483 Y229.658 E17.25405
G1 X57.577 Y230.095 E17.26892
G1 X54.134 Y230.095 E17.38343
G1 X54.002 Y229.401 E17.40693
G1 X54.002 Y228.721 E17.42954
G1 X53.992 Y228.582 E17.43418
G1 X53.768 Y226.989 E17.48768
G1 X53.689 Y226.211 E17.51369
G1 X53.689 Y218.985 E17.75403
G1 X53.784 Y218.072 E17.78456
G1 X53.992 Y216.587 E17.83443
G1 X54.002 Y216.448 E17.83907
G1 X54.002 Y215.79 E17.86095
G1 X54.135 Y215.095 E17.88449
G1 F1500 E11.38449
G1 F600 Z0.3
G0 F1800 X69.95 Y219.22 Z0.3
G1 F600 Z0.2
G1 F1500 E17.88449
G1 F1200 X70.018 Y219.1 E17.88908
G1 X70.039 Y218.907 E17.89553
G1 X70.479 Y218.907 E17.91017
G1 X70.533 Y218.934 E17.91218
G1 X70.582 Y218.934 E17.91381
G1 X70.613 Y218.992 E17.91599
G1 X70.673 Y219.031 E17.91837
G1 X71.318 Y219.304 E17.94167
G1 X71.341 Y219.312 E17.94248
G1 X72.15 Y219.545 E17.97048
G1 X72.181 Y219.552 E17.97154
G1 X72.617 Y219.604 E17.98614
G1 X72.617 Y225.528 E18.18317
G1 X71.675 Y225.717 E18.21513
G1 X71.647 Y225.725 E18.2161
G1 X70.866 Y226.003 E18.24367
G1 X70.767 Y226.079 E18.24782
G1 X70.764 Y226.089 E18.24817
G1 X70.69 Y226.105 E18.25069
G1 X70.583 Y226.168 E18.25482
G1 X70.55 Y226.256 E18.25794
G1 X70.533 Y226.256 E18.25851
G1 X70.454 Y226.282 E18.26128
G1 X70.039 Y226.282 E18.27508
G1 X70.018 Y226.091 E18.28147
G1 X69.966 Y225.978 E18.28561
G1 X69.951 Y225.971 E18.28616
G1 X69.912 Y225.617 E18.298
G1 X69.862 Y225.507 E18.30202
G1 X69.827 Y224.915 E18.32175
G1 X69.781 Y224.799 E18.3259
G1 X69.773 Y224.795 E18.32619
G1 X69.772 Y220.406 E18.47217
G1 X69.843 Y220.271 E18.47725
G1 X69.865 Y219.658 E18.49765
G1 X69.913 Y219.575 E18.50084
G1 X69.95 Y219.22 E18.51271
G0 F1800 X70.336 Y219.375
G1 F1200 X70.353 Y219.353 E18.51363
G1 X70.367 Y219.307 E18.51523
G1 X70.381 Y219.319 E18.51584
G1 X70.517 Y219.4 E18.52111
G1 X71.162 Y219.673 E18.54441
G1 X71.23 Y219.697 E18.5468
G1 X72.039 Y219.93 E18.5748
G1 X72.134 Y219.949 E18.57803
G1 X72.217 Y219.959 E18.58081
G1 X72.217 Y225.201 E18.75516
G1 X71.596 Y225.325 E18.77622
G1 X71.513 Y225.348 E18.77908
G1 X70.732 Y225.626 E18.80666
G1 X70.543 Y225.735 E18.81391
G1 X70.537 Y225.742 E18.81422
G1 X70.403 Y225.799 E18.81906
G1 X70.355 Y225.845 E18.82127
G1 X70.353 Y225.839 E18.82148
G1 X70.336 Y225.816 E18.82244
G1 X70.309 Y225.574 E18.83054
G1 X70.256 Y225.394 E18.83678
G1 X70.226 Y224.892 E18.8535
G1 X70.174 Y224.68 E18.86076
G1 X70.172 Y220.544 E18.99833
G1 X70.177 Y220.538 E18.99859
G1 X70.243 Y220.286 E19.00725
G1 X70.261 Y219.783 E19.02399
G1 X70.311 Y219.616 E19.02979
G1 X70.336 Y219.375 E19.03785
G1 F1500 E12.53785
G1 F600 Z0.3
G0 F1800 X71.006 Y220.041 Z0.3
G1 F600 Z0.2
G1 F1500 E19.03785
G1 F1200 X71.119 Y220.081 E19.04183
G1 X71.817 Y220.282 E19.06599
G1 X71.817 Y224.872 E19.21866
G1 X71.518 Y224.932 E19.2288
G1 X71.379 Y224.971 E19.2336
G1 X70.646 Y225.232 E19.25948
G1 X70.625 Y224.868 E19.27161
G1 X70.573 Y224.611 E19.28033
G1 X70.572 Y220.59 E19.41407
G1 X70.642 Y220.301 E19.42396
G1 X70.657 Y219.893 E19.43754
G1 X71.006 Y220.041 E19.45015
G1 F1500 E12.95015
G1 F600 Z0.3
G0 F1800 X82.417 Y214.295 Z0.3
G1 F600 Z0.2
G1 F1500 E19.45015
G1 F1200 X100.617 Y214.295 E20.05548
G1 X100.617 Y230.895 E20.6076
G1 X82.417 Y230.895 E21.21293
G1 X82.417 Y214.295 E21.76505
G0 F1800 X82.817 Y214.695
G1 F1200 X100.217 Y214.695 E22.34378
G1 X100.217 Y230.495 E22.86929
G1 X82.817 Y230.495 E23.44801
G1 X82.817 Y214.695 E23.97352
G0 F1800 X83.217 Y215.095
G1 F1200 X99.817 Y215.095 E24.52564
G1 X99.817 Y230.095 E25.02454
G1 X83.217 Y230.095 E25.57666
G1 X83.217 Y215.095 E26.07557
G1 F1500 E19.57557
G1 F600 Z0.3
G0 F1800 X110.417 Y219.566 Z0.3
G1 F600 Z0.2
G1 F1500 E26.07557
G1 F1200 X110.862 Y219.516 E26.09046
G1 X110.882 Y219.512 E26.09114
G1 X111.264 Y219.429 E26.10414
G1 X111.284 Y219.424 E26.10482
G1 X112.364 Y219.073 E26.1426
G1 X112.465 Y218.999 E26.14676
G1 X112.486 Y218.934 E26.14903
G1 X112.502 Y218.934 E26.14956
G1 X112.581 Y218.908 E26.15233
G1 X112.996 Y218.908 E26.16613
G1 X113.017 Y219.099 E26.17252
G1 X113.069 Y219.213 E26.17669
G1 X113.084 Y219.22 E26.17724
G1 X113.122 Y219.572 E26.18902
G1 X113.173 Y219.684 E26.19311
G1 X113.208 Y220.279 E26.21293
G1 X113.254 Y220.395 E26.21709
G1 X113.262 Y220.399 E26.21738
G1 X113.263 Y224.786 E26.36329
G1 X113.194 Y224.916 E26.36819
G1 X113.169 Y225.536 E26.38883
G1 X113.123 Y225.616 E26.3919
G1 X113.085 Y225.97 E26.40374
G1 X113.017 Y226.092 E26.40838
G1 X112.997 Y226.284 E26.41481
G1 X112.556 Y226.284 E26.42947
G1 X112.502 Y226.257 E26.43148
G1 X112.476 Y226.257 E26.43235
G1 X112.46 Y226.207 E26.43409
G1 X112.372 Y226.14 E26.43777
G1 X111.582 Y225.828 E26.46602
G1 X111.552 Y225.819 E26.46706
G1 X110.723 Y225.635 E26.49531
G1 X110.703 Y225.631 E26.49598
G1 X110.417 Y225.598 E26.50556
G1 X110.417 Y219.566 E26.70619
G0 F1800 X110.817 Y219.923
G1 F1200 X110.907 Y219.913 E26.7092
G1 X110.967 Y219.903 E26.71122
G1 X111.349 Y219.82 E26.72422
G1 X111.407 Y219.805 E26.72621
G1 X112.487 Y219.454 E26.76399
G1 X112.679 Y219.35 E26.77125
G1 X112.698 Y219.373 E26.77224
G1 X112.724 Y219.615 E26.78034
G1 X112.78 Y219.799 E26.78673
G1 X112.809 Y220.302 E26.80349
G1 X112.861 Y220.514 E26.81075
G1 X112.863 Y224.646 E26.94818
G1 X112.86 Y224.65 E26.94835
G1 X112.794 Y224.9 E26.95695
G1 X112.773 Y225.412 E26.97399
G1 X112.725 Y225.573 E26.97958
G1 X112.698 Y225.82 E26.98784
G1 X112.677 Y225.849 E26.98903
G1 X112.67 Y225.873 E26.98986
G1 X112.519 Y225.768 E26.99598
G1 X111.729 Y225.456 E27.02423
G1 X111.639 Y225.428 E27.02737
G1 X110.817 Y225.246 E27.05537
G1 X110.817 Y219.923 E27.23241
G0 F1800 X111.217 Y220.258
G1 F1200 X111.434 Y220.211 E27.2398
G1 X111.531 Y220.185 E27.24314
G1 X112.385 Y219.907 E27.27301
G1 X112.41 Y220.326 E27.28697
G1 X112.462 Y220.583 E27.29569
G1 X112.463 Y224.605 E27.42946
G1 X112.395 Y224.883 E27.43898
G1 X112.379 Y225.283 E27.4523
G1 X111.876 Y225.084 E27.47029
G1 X111.726 Y225.038 E27.47551
G1 X111.217 Y224.925 E27.49285
G1 X111.217 Y220.258 E27.64807
G1 F1500 E21.14807
G1 F600 Z0.3
G0 F1800 X124.624 Y216.139 Z0.3
G1 F600 Z0.2
G1 F1500 E27.64807
G1 F1200 X124.621 Y216.102 E27.64931
G1 X124.427 Y215.058 E27.68463
G1 X124.367 Y214.949 E27.68876
G1 X124.305 Y214.925 E27.69098
G1 X124.305 Y214.295 E27.71193
G1 X129.563 Y214.295 E27.88681
G1 X129.833 Y215.712 E27.93479
G1 X129.833 Y216.461 E27.9597
G1 X129.835 Y216.488 E27.9606
G1 X130.074 Y218.236 E28.01928
