;FLAVOR:Marlin
;TIME:9211
;Filament used: 8.13467m
;Layer height: 0.2
;MINX:49.716
;MINY:155.953
;MINZ:0.1
;MAXX:99.503
;MAXY:242.573
;MAXZ:54.7
;TARGET_MACHINE.NAME:Anycubic Kobra Plus
;Generated with Cura_SteamEngine 5.8.0
M140 S75
M105
M190 S75
M104 S235
M105
M109 S235
M82 ;absolute extrusion mode
G28 ;Home
G1 Z15.0 F6000 ;Move the platform down 15mm
;Prime the extruder
G92 E0
M355 S1; Turn LED on
; Add Custom purge lines
G1 Z2.0 F3000 ; Move Z Axis up little to prevent scratching of Heat Bed
G1 X1.0 Y30 Z0.3 F5000.0 ; Move to start position
G1 X1.0 Y100.0 Z0.3 F1500.0 E15 ; Draw the first line
G1 X1.3 Y100.0 Z0.3 F5000.0 ; Move to side a little
G1 X1.3 Y30 Z0.3 F1500.0 E30 ; Draw the second line
G92 E0 ; Reset Extruder
G1 E-2 F500 ; Retract a little 
G1 X50 F500 ; wipe away from the filament line
G1 X100 F9000 ; Quickly wipe away from the filament line
G1 Z5.0 F3000 ; Move Z Axis up little to prevent scratching of Heat Bed
; End custom purge lines
G92 E0
G92 E0
G1 F1500 E-6.5
;LAYER_COUNT:273
;LAYER:0
M107
G1 F600 Z0.3
G0 F1800 X52.829 Y157.574 Z0.3
;TYPE:SKIRT
G1 F600 Z0.2
G1 F1500 E0
G1 F1200 X53.962 Y157.346 E0.03844
G1 X56.931 Y156.783 E0.13895
G1 X60.259 Y156.044 E0.25233
G1 X60.947 Y155.964 E0.27537
G1 X61.664 Y155.953 E0.29922
G1 X63.086 Y155.953 E0.34652
G1 X63.787 Y155.963 E0.36984
G1 X64.547 Y156.055 E0.3953
G1 X67.584 Y156.759 E0.49899
G1 X69.872 Y157.211 E0.57656
G1 X70.021 Y157.253 E0.58171
G1 X71.465 Y157.54 E0.63067
G1 X72.012 Y157.699 E0.64962
G1 X72.526 Y157.942 E0.66853
G1 X72.995 Y158.263 E0.68743
G1 X73.413 Y158.66 E0.70661
G1 X73.811 Y159.193 E0.72873
G1 X74.432 Y160.213 E0.76845
G1 X74.546 Y160.382 E0.77523
G1 X75.148 Y161.378 E0.81394
G1 X76.631 Y163.681 E0.90504
G1 X78.174 Y165.93 E0.99576
G1 X79.758 Y168.105 E1.08525
G1 X81.451 Y170.297 E1.17737
G1 X83.172 Y172.402 E1.2678
G1 X84.936 Y174.438 E1.3574
G1 X86.801 Y176.471 E1.44916
G1 X88.691 Y178.418 E1.53941
G1 X90.671 Y180.344 E1.63128
G1 X92.646 Y182.161 E1.72054
G1 X94.696 Y183.941 E1.81084
G1 X97.465 Y186.195 E1.92959
G1 X98.103 Y186.696 E1.95658
G1 X98.542 Y187.106 E1.97655
G1 X98.89 Y187.556 E1.99547
G1 X99.164 Y188.054 E2.01438
G1 X99.355 Y188.59 E2.03331
G1 X99.459 Y189.145 E2.05209
G1 X99.49 Y189.834 E2.07503
G1 X99.49 Y198.381 E2.3593
G1 X99.503 Y200.201 E2.41983
G1 X99.49 Y202.87 E2.50861
G1 X99.49 Y210.867 E2.77459
G1 X99.48 Y211.569 E2.79794
G1 X99.42 Y212.166 E2.8179
G1 X99.274 Y212.716 E2.83682
G1 X99.072 Y213.179 E2.85362
G1 X98.733 Y213.712 E2.87463
G1 X98.283 Y214.219 E2.89718
G1 X95.473 Y216.293 E3.01334
G1 X93.341 Y217.966 E3.10348
G1 X91.247 Y219.709 E3.19409
G1 X89.194 Y221.52 E3.28515
G1 X87.186 Y223.392 E3.37646
G1 X85.267 Y225.284 E3.46609
G1 X83.391 Y227.245 E3.55635
G1 X81.547 Y229.283 E3.64776
G1 X79.772 Y231.362 E3.73868
G1 X78.055 Y233.49 E3.82963
G1 X76.415 Y235.647 E3.91975
G1 X74.825 Y237.863 E4.01047
G1 X74.138 Y238.88 E4.05129
G1 X73.668 Y239.552 E4.07856
G1 X73.347 Y239.943 E4.09539
G1 X72.874 Y240.362 E4.1164
G1 X72.392 Y240.662 E4.13529
G1 X71.761 Y240.935 E4.15815
G1 X70.072 Y241.266 E4.2154
G1 X67.402 Y241.81 E4.30603
G1 X65.971 Y242.153 E4.35497
G1 X65.824 Y242.177 E4.35992
G1 X64.498 Y242.48 E4.40516
G1 X63.801 Y242.569 E4.42853
G1 X61.391 Y242.573 E4.50869
G1 X60.69 Y242.563 E4.53201
G1 X59.931 Y242.471 E4.55744
G1 X56.885 Y241.766 E4.66143
G1 X54.606 Y241.311 E4.73872
G1 X54.506 Y241.283 E4.74218
G1 X53.022 Y240.988 E4.7925
G1 X52.475 Y240.829 E4.81145
G1 X51.961 Y240.586 E4.83036
G1 X51.492 Y240.265 E4.84926
G1 X51.079 Y239.875 E4.86815
G1 X50.767 Y239.477 E4.88497
G1 X50.462 Y238.925 E4.90595
G1 X50.272 Y238.387 E4.92493
G1 X50.155 Y237.742 E4.94673
G1 X50.141 Y236.906 E4.97454
G1 X50.141 Y232.506 E5.12088
G1 X50.151 Y231.788 E5.14477
G1 X50.198 Y230.692 E5.18125
G1 X50.244 Y229.871 E5.2086
G1 X50.322 Y227.117 E5.30024
G1 X50.322 Y224.411 E5.39024
G1 X50.244 Y221.667 E5.48154
G1 X50.09 Y218.945 E5.57222
G1 X49.861 Y216.25 E5.66218
G1 X49.742 Y215.101 E5.7006
G1 X49.717 Y214.523 E5.71984
G1 X49.716 Y212.392 E5.79072
G1 X49.727 Y211.699 E5.81377
G1 X49.793 Y210.689 E5.84744
G1 X49.903 Y209.4 E5.89046
G1 X50.054 Y206.707 E5.98017
G1 X50.141 Y202.623 E6.11604
G1 X50.141 Y195.922 E6.33892
G1 X50.101 Y193.13 E6.43179
G1 X49.986 Y190.429 E6.5217
G1 X49.718 Y186.75 E6.64439
G1 X49.716 Y184.41 E6.72222
G1 X49.732 Y183.528 E6.75156
G1 X49.865 Y182.177 E6.79671
G1 X50.102 Y179.392 E6.88968
G1 X50.254 Y176.696 E6.97949
G1 X50.331 Y173.947 E7.07096
G1 X50.331 Y171.24 E7.16099
G1 X50.252 Y168.493 E7.2524
G1 X50.142 Y166.339 E7.32413
G1 X50.141 Y161.677 E7.47919
G1 X50.151 Y161.007 E7.50148
G1 X50.212 Y160.41 E7.52144
G1 X50.358 Y159.86 E7.54036
G1 X50.56 Y159.397 E7.55716
G1 X50.9 Y158.865 E7.57816
G1 X51.282 Y158.443 E7.5971
G1 X51.724 Y158.088 E7.61595
G1 X52.218 Y157.805 E7.63489
G1 X52.829 Y157.574 E7.65661
G0 F1800 X52.908 Y157.966
G1 F1200 X54.037 Y157.739 E7.69492
G1 X57.006 Y157.176 E7.79542
G1 X60.306 Y156.441 E7.90787
G1 X60.953 Y156.364 E7.92954
G1 X61.67 Y156.353 E7.95339
G1 X63.08 Y156.353 E8.00029
G1 X63.781 Y156.363 E8.02361
G1 X64.457 Y156.445 E8.04626
G1 X67.494 Y157.148 E8.14994
G1 X69.763 Y157.596 E8.22686
G1 X69.922 Y157.641 E8.23236
G1 X71.357 Y157.925 E8.28101
G1 X71.844 Y158.062 E8.29784
G1 X72.303 Y158.274 E8.31466
G1 X72.723 Y158.556 E8.33148
G1 X73.093 Y158.9 E8.34829
G1 X73.469 Y159.401 E8.36912
G1 X74.092 Y160.425 E8.40899
G1 X74.204 Y160.589 E8.41559
G1 X74.812 Y161.595 E8.45469
G1 X76.301 Y163.907 E8.54615
G1 X77.844 Y166.156 E8.63687
G1 X79.441 Y168.35 E8.72712
G1 X81.134 Y170.542 E8.81924
G1 X82.862 Y172.655 E8.91003
G1 X84.641 Y174.708 E9.00038
G1 X86.514 Y176.75 E9.09254
G1 X88.412 Y178.705 E9.18317
G1 X90.392 Y180.631 E9.27504
G1 X92.384 Y182.463 E9.36506
G1 X94.443 Y184.251 E9.45576
G1 X97.218 Y186.51 E9.57477
G1 X97.856 Y187.011 E9.60175
G1 X98.228 Y187.354 E9.61858
G1 X98.541 Y187.751 E9.63539
G1 X98.788 Y188.192 E9.6522
G1 X98.962 Y188.667 E9.66903
G1 X99.059 Y189.163 E9.68584
G1 X99.09 Y189.852 E9.70878
G1 X99.09 Y198.381 E9.99245
G1 X99.103 Y200.199 E10.05292
G1 X99.09 Y202.868 E10.1417
G1 X99.09 Y210.861 E10.40754
G1 X99.08 Y211.563 E10.43089
G1 X99.033 Y212.066 E10.4477
G1 X98.907 Y212.556 E10.46452
G1 X98.705 Y213.019 E10.48133
G1 X98.434 Y213.446 E10.49815
G1 X98.012 Y213.921 E10.51928
G1 X95.235 Y215.971 E10.63408
G1 X93.094 Y217.651 E10.7246
G1 X90.982 Y219.409 E10.816
G1 X88.929 Y221.22 E10.90705
G1 X86.913 Y223.099 E10.99871
G1 X84.986 Y224.999 E11.08872
G1 X83.094 Y226.977 E11.17976
G1 X81.25 Y229.015 E11.27117
G1 X79.468 Y231.102 E11.36244
G1 X77.744 Y233.239 E11.45377
G1 X76.09 Y235.414 E11.54465
G1 X74.5 Y237.63 E11.63536
G1 X73.81 Y238.651 E11.67635
G1 X73.359 Y239.298 E11.70258
G1 X73.038 Y239.689 E11.71941
G1 X72.66 Y240.024 E11.73621
G1 X72.233 Y240.295 E11.75303
G1 X71.644 Y240.55 E11.77437
G1 X69.995 Y240.873 E11.83026
G1 X67.322 Y241.418 E11.921
G1 X65.878 Y241.764 E11.97038
G1 X65.741 Y241.785 E11.97499
G1 X64.447 Y242.083 E12.01916
G1 X63.75 Y242.172 E12.04253
G1 X61.397 Y242.173 E12.12079
G1 X60.696 Y242.163 E12.14411
G1 X60.021 Y242.081 E12.16672
G1 X56.975 Y241.376 E12.27071
G1 X54.715 Y240.926 E12.34736
G1 X54.605 Y240.895 E12.35116
G1 X53.13 Y240.603 E12.40117
G1 X52.643 Y240.466 E12.41799
G1 X52.184 Y240.254 E12.43481
G1 X51.764 Y239.972 E12.45164
G1 X51.394 Y239.628 E12.46844
G1 X51.082 Y239.23 E12.48526
G1 X50.838 Y238.788 E12.50205
G1 X50.665 Y238.312 E12.5189
G1 X50.555 Y237.735 E12.53843
G1 X50.541 Y236.899 E12.56624
G1 X50.541 Y232.512 E12.71215
G1 X50.551 Y231.805 E12.73567
G1 X50.597 Y230.715 E12.77196
G1 X50.644 Y229.882 E12.79971
G1 X50.722 Y227.128 E12.89134
G1 X50.722 Y224.411 E12.98171
G1 X50.644 Y221.656 E13.07338
G1 X50.489 Y218.911 E13.16482
G1 X50.26 Y216.216 E13.25478
G1 X50.142 Y215.083 E13.29267
G1 X50.117 Y214.523 E13.31131
G1 X50.116 Y212.398 E13.38199
G1 X50.126 Y211.725 E13.40438
G1 X50.192 Y210.723 E13.43778
G1 X50.301 Y209.434 E13.4808
G1 X50.454 Y206.716 E13.57135
G1 X50.541 Y202.632 E13.70721
G1 X50.541 Y195.922 E13.93039
G1 X50.501 Y193.124 E14.02346
G1 X50.386 Y190.412 E14.11374
G1 X50.117 Y186.721 E14.23683
G1 X50.116 Y184.417 E14.31346
G1 X50.13 Y183.567 E14.34174
G1 X50.264 Y182.211 E14.38706
G1 X50.5 Y179.426 E14.48002
G1 X50.654 Y176.707 E14.5706
G1 X50.731 Y173.958 E14.66207
G1 X50.731 Y171.24 E14.75247
G1 X50.652 Y168.482 E14.84424
G1 X50.542 Y166.339 E14.91561
G1 X50.541 Y161.683 E15.07047
G1 X50.551 Y161.013 E15.09275
G1 X50.599 Y160.51 E15.10956
G1 X50.725 Y160.02 E15.12639
G1 X50.927 Y159.557 E15.14319
G1 X51.199 Y159.131 E15.16
G1 X51.535 Y158.753 E15.17682
G1 X51.926 Y158.433 E15.19362
G1 X52.363 Y158.178 E15.21045
G1 X52.908 Y157.966 E15.2299
G1 F1500 E8.7299
G1 F600 Z0.3
G0 F1800 X53.941 Y161.218 Z0.3
G1 F600 Z0.2
G1 F1500 E15.2299
G1 F1200 X55.359 Y160.948 E15.27791
G1 X56.142 Y160.92 E15.30397
G1 X56.164 Y160.918 E15.30471
G1 X59.016 Y160.497 E15.40059
G1 X59.043 Y160.491 E15.40151
G1 X60.067 Y160.191 E15.437
G1 X60.093 Y160.181 E15.43793
G1 X61.042 Y159.753 E15.47255
G1 X63.561 Y159.753 E15.55634
G1 X63.58 Y159.81 E15.55833
G1 X63.661 Y159.874 E15.56177
G1 X64.739 Y160.345 E15.6009
G1 X64.772 Y160.356 E15.60205
G1 X65.664 Y160.573 E15.63259
G1 X65.687 Y160.578 E15.63337
G1 X66.882 Y160.721 E15.6734
G1 X68.34 Y160.925 E15.72236
G1 X68.363 Y160.927 E15.72313
G1 X69.122 Y160.948 E15.74839
G1 X70.541 Y161.22 E15.79644
G1 X70.541 Y166.238 E15.96334
G1 X69.884 Y166.238 E15.98519
G1 X69.779 Y166.172 E15.98932
G1 X68.795 Y165.98 E16.02266
G1 X68.761 Y165.976 E16.0238
G1 X65.593 Y165.908 E16.12919
G1 X65.585 Y165.908 E16.12946
G1 X56.006 Y166.08 E16.44811
G1 X55.998 Y166.08 E16.44838
G1 X54.729 Y166.159 E16.49066
G1 X54.613 Y166.206 E16.49483
G1 X54.598 Y166.237 E16.49597
G1 X53.941 Y166.237 E16.51782
G1 X53.941 Y161.218 E16.68476
G0 F1800 X54.341 Y161.549
G1 F1200 X55.403 Y161.347 E16.72071
G1 X56.156 Y161.32 E16.74577
G1 X56.223 Y161.314 E16.74801
G1 X59.075 Y160.893 E16.8439
G1 X59.156 Y160.875 E16.84666
G1 X60.18 Y160.575 E16.88215
G1 X60.258 Y160.546 E16.88491
G1 X61.129 Y160.153 E16.9167
G1 X63.379 Y160.153 E16.99153
G1 X63.501 Y160.241 E16.99653
G1 X64.579 Y160.712 E17.03566
G1 X64.677 Y160.745 E17.0391
G1 X65.569 Y160.962 E17.06963
G1 X65.64 Y160.975 E17.07204
G1 X66.835 Y161.118 E17.11207
G1 X68.285 Y161.321 E17.16076
G1 X68.352 Y161.327 E17.163
G1 X69.079 Y161.347 E17.18719
G1 X70.141 Y161.551 E17.22316
G1 X70.141 Y165.838 E17.36574
G1 X70.02 Y165.838 E17.36977
G1 X70.015 Y165.834 E17.36998
G1 X69.856 Y165.779 E17.37558
G1 X68.872 Y165.587 E17.40892
G1 X68.77 Y165.576 E17.41233
G1 X65.602 Y165.508 E17.51773
G1 X65.578 Y165.508 E17.51852
G1 X55.999 Y165.68 E17.83717
G1 X55.973 Y165.681 E17.83804
G1 X54.704 Y165.76 E17.88033
G1 X54.492 Y165.813 E17.8876
G1 X54.458 Y165.837 E17.88898
G1 X54.341 Y165.837 E17.89287
G1 X54.341 Y161.549 E18.03549
G0 F1800 X54.741 Y161.88
G1 F1200 X55.453 Y161.744 E18.0596
G1 X56.17 Y161.719 E18.08346
G1 X56.281 Y161.709 E18.08717
G1 X59.133 Y161.288 E18.18306
G1 X59.268 Y161.259 E18.18765
G1 X60.292 Y160.959 E18.22314
G1 X60.422 Y160.911 E18.22775
G1 X61.216 Y160.553 E18.25672
G1 X63.256 Y160.553 E18.32457
G1 X63.341 Y160.607 E18.32792
G1 X64.419 Y161.078 E18.36704
G1 X64.583 Y161.134 E18.37281
G1 X65.475 Y161.351 E18.40334
G1 X65.592 Y161.372 E18.4073
G1 X66.787 Y161.515 E18.44732
G1 X68.229 Y161.717 E18.49575
G1 X68.341 Y161.727 E18.49949
G1 X69.036 Y161.746 E18.52262
G1 X69.741 Y161.881 E18.54649
G1 X69.741 Y165.35 E18.66187
G1 X68.949 Y165.195 E18.68871
G1 X68.778 Y165.176 E18.69444
G1 X65.61 Y165.108 E18.79983
G1 X65.571 Y165.108 E18.80113
G1 X55.992 Y165.28 E19.11978
G1 X55.948 Y165.282 E19.12124
G1 X54.741 Y165.357 E19.16146
G1 X54.741 Y161.88 E19.27711
G1 F1500 E12.77711
G1 F600 Z0.3
G0 F1800 X58.866 Y177.697 Z0.3
G1 F600 Z0.2
G1 F1500 E19.27711
G1 F1200 X59.219 Y177.659 E19.28892
G1 X59.331 Y177.608 E19.29301
G1 X59.921 Y177.573 E19.31267
G1 X60.037 Y177.527 E19.31682
G1 X60.041 Y177.519 E19.31712
G1 X64.43 Y177.518 E19.4631
G1 X64.565 Y177.589 E19.46817
G1 X65.176 Y177.611 E19.4885
G1 X65.262 Y177.66 E19.4918
G1 X65.615 Y177.696 E19.5036
G1 X65.736 Y177.765 E19.50823
G1 X65.929 Y177.785 E19.51468
G1 X65.929 Y178.216 E19.52902
G1 X65.926 Y178.22 E19.52919
G1 X65.92 Y178.311 E19.53222
G1 X66.012 Y178.885 E19.55155
G1 X66.026 Y178.933 E19.55322
G1 X66.185 Y179.298 E19.56646
G1 X66.204 Y179.333 E19.56778
G1 X66.434 Y179.662 E19.58113
G1 X66.46 Y179.692 E19.58245
G1 X66.748 Y179.965 E19.59565
G1 X66.78 Y179.99 E19.597
G1 X67.029 Y180.146 E19.60678
G1 X66.967 Y180.363 E19.61428
G1 X57.525 Y180.363 E19.92833
G1 X57.46 Y180.152 E19.93567
G1 X57.755 Y179.949 E19.94758
G1 X57.785 Y179.924 E19.94888
G1 X58.064 Y179.638 E19.96217
G1 X58.09 Y179.606 E19.96354
G1 X58.303 Y179.272 E19.97671
G1 X58.323 Y179.23 E19.97826
G1 X58.504 Y178.709 E19.99661
G1 X58.514 Y178.659 E19.9983
G1 X58.553 Y178.182 E20.01422
G1 X58.554 Y178.166 E20.01475
G1 X58.554 Y177.785 E20.02742
G1 X58.745 Y177.764 E20.03382
G1 X58.859 Y177.712 E20.03798
G1 X58.866 Y177.697 E20.03853
G0 F1800 X59.018 Y178.083
G1 F1200 X59.262 Y178.057 E20.0467
G1 X59.446 Y178.001 E20.05309
G1 X59.944 Y177.972 E20.06968
G1 X60.156 Y177.92 E20.07694
G1 X64.292 Y177.918 E20.21451
G1 X64.298 Y177.923 E20.21477
G1 X64.55 Y177.989 E20.22343
G1 X65.05 Y178.007 E20.24007
G1 X65.222 Y178.058 E20.24604
G1 X65.46 Y178.082 E20.254
G1 X65.483 Y178.1 E20.25497
G1 X65.529 Y178.114 E20.25657
G1 X65.529 Y178.187 E20.25899
G1 X65.521 Y178.214 E20.25993
G1 X65.525 Y178.374 E20.26525
G1 X65.617 Y178.948 E20.28459
G1 X65.659 Y179.093 E20.28961
G1 X65.818 Y179.458 E20.30285
G1 X65.876 Y179.562 E20.30681
G1 X66.106 Y179.891 E20.32016
G1 X66.169 Y179.963 E20.32335
G1 X58.305 Y179.963 E20.5849
G1 X58.35 Y179.917 E20.58704
G1 X58.427 Y179.821 E20.59114
G1 X58.64 Y179.487 E20.60431
G1 X58.701 Y179.361 E20.60897
G1 X58.882 Y178.84 E20.62731
G1 X58.913 Y178.692 E20.63234
G1 X58.952 Y178.215 E20.64826
G1 X58.954 Y178.166 E20.64989
G1 X58.954 Y178.112 E20.65169
G1 X58.998 Y178.099 E20.65321
G1 X59.018 Y178.083 E20.65407
G0 F1800 X59.335 Y178.446
G1 F1200 X59.531 Y178.397 E20.66079
G1 X59.968 Y178.371 E20.67535
G1 X60.225 Y178.319 E20.68407
G1 X64.246 Y178.318 E20.81781
G1 X64.535 Y178.388 E20.8277
G1 X64.997 Y178.405 E20.84307
G1 X65.131 Y178.442 E20.8477
G1 X65.222 Y179.011 E20.86686
G1 X65.292 Y179.252 E20.87521
G1 X65.427 Y179.563 E20.88649
G1 X59.045 Y179.563 E21.09875
G1 X59.079 Y179.492 E21.10137
G1 X59.26 Y178.971 E21.11971
G1 X59.312 Y178.724 E21.12811
G1 X59.335 Y178.446 E21.13739
G1 F1500 E14.63739
G1 F600 Z0.3
G0 F1800 X56.073 Y180.463 Z0.3
G1 F600 Z0.2
G1 F1500 E21.13739
G1 F1200 X56.074 Y189.963 E21.45336
G1 X56.113 Y190.082 E21.45752
G1 X56.274 Y190.163 E21.46352
G1 X61.429 Y190.163 E21.63497
G1 X61.548 Y190.124 E21.63914
G1 X61.629 Y189.97 E21.64493
G1 X61.646 Y189.463 E21.6618
G1 X62.829 Y189.463 E21.70115
G1 X62.827 Y189.962 E21.71774
G1 X62.865 Y190.081 E21.7219
G1 X63.027 Y190.163 E21.72794
G1 X68.209 Y190.163 E21.90029
G1 X68.328 Y190.124 E21.90446
G1 X68.409 Y189.963 E21.91045
G1 X68.409 Y180.463 E22.22642
G1 X69.465 Y180.463 E22.26154
G1 X69.465 Y190.097 E22.58197
G1 X69.45 Y190.102 E22.5825
G1 X69.374 Y190.217 E22.58708
G1 X69.288 Y190.584 E22.59962
G1 X69.283 Y190.621 E22.60086
G1 X69.266 Y191.02 E22.61414
G1 X69.268 Y191.06 E22.61548
G1 X69.33 Y191.455 E22.62878
G1 X69.341 Y191.494 E22.63012
G1 X69.481 Y191.867 E22.64337
G1 X69.499 Y191.903 E22.64471
G1 X69.713 Y192.244 E22.6581
G1 X69.741 Y192.28 E22.65962
G1 X70.11 Y192.647 E22.67693
G1 X70.138 Y192.67 E22.67813
G1 X70.378 Y192.835 E22.68782
G1 X70.491 Y192.87 E22.69176
G1 X70.541 Y192.87 E22.69342
G1 X70.541 Y205.657 E23.11872
G1 X70.492 Y205.657 E23.12035
G1 X70.358 Y205.709 E23.12513
G1 X69.771 Y206.24 E23.15145
G1 X69.738 Y206.279 E23.15315
G1 X69.522 Y206.61 E23.1663
G1 X69.503 Y206.646 E23.16765
G1 X69.357 Y207.017 E23.18091
G1 X69.346 Y207.055 E23.18223
G1 X69.275 Y207.454 E23.19571
G1 X69.272 Y207.501 E23.19727
G1 X69.304 Y208.035 E23.21507
G1 X69.31 Y208.071 E23.21628
G1 X69.369 Y208.311 E23.2245
G1 X69.435 Y208.417 E23.22865
