;FLAVOR:Marlin
;TIME:7250
;Filament used: 7.092m
;Layer height: 0.2
;MINX:108.571
;MINY:138.9
;MINZ:0.2
;MAXX:193.429
;MAXY:163.1
;MAXZ:54.7
;TARGET_MACHINE.NAME:Anycubic Kobra Plus
;Generated with Cura_SteamEngine 5.8.0
M140 S75
M105
M190 S75
M104 S235
M105
M109 S235
M82 ;absolute extrusion mode
G28 ;Home
G1 Z15.0 F6000 ;Move the platform down 15mm
;Prime the extruder
G92 E0
M355 S1; Turn LED on
; Add Custom purge lines
G1 Z2.0 F3000 ; Move Z Axis up little to prevent scratching of Heat Bed
G1 X1.0 Y30 Z0.3 F5000.0 ; Move to start position
G1 X1.0 Y100.0 Z0.3 F1500.0 E15 ; Draw the first line
G1 X1.3 Y100.0 Z0.3 F5000.0 ; Move to side a little
G1 X1.3 Y30 Z0.3 F1500.0 E30 ; Draw the second line
G92 E0 ; Reset Extruder
G1 E-2 F500 ; Retract a little 
G1 X50 F500 ; wipe away from the filament line
G1 X100 F9000 ; Quickly wipe away from the filament line
G1 Z5.0 F3000 ; Move Z Axis up little to prevent scratching of Heat Bed
; End custom purge lines
G92 E0
G92 E0
G1 F1500 E-6.5
;LAYER_COUNT:273
;LAYER:0
M107
G1 F600 Z0.3
G0 F1800 X110.38 Y139.841 Z0.3
;TYPE:SKIRT
G1 F600 Z0.2
G1 F1500 E0
G1 F1200 X110.831 Y139.494 E0.01893
G1 X111.33 Y139.223 E0.03781
G1 X111.866 Y139.033 E0.05673
G1 X112.517 Y138.913 E0.07874
G1 X113.371 Y138.9 E0.10715
G1 X117.52 Y138.9 E0.24515
G1 X118.389 Y138.914 E0.27405
G1 X120.287 Y139.109 E0.33751
G1 X123.069 Y139.345 E0.43038
G1 X125.758 Y139.494 E0.51995
G1 X128.51 Y139.569 E0.61152
G1 X131.205 Y139.567 E0.70115
G1 X133.96 Y139.486 E0.79282
G1 X136.68 Y139.331 E0.88344
G1 X139.381 Y139.097 E0.97361
G1 X140.957 Y138.928 E1.02633
G1 X141.555 Y138.902 E1.04624
G1 X160.033 Y138.9 E1.66082
G1 X160.9 Y138.914 E1.68966
G1 X162.844 Y139.114 E1.75466
G1 X165.616 Y139.347 E1.84718
G1 X168.313 Y139.496 E1.93702
G1 X171.061 Y139.57 E2.02845
G1 X173.757 Y139.566 E2.11812
G1 X176.512 Y139.484 E2.20979
G1 X179.213 Y139.329 E2.29978
G1 X183.52 Y138.923 E2.44366
G1 X184.066 Y138.901 E2.46184
G1 X188.558 Y138.9 E2.61124
G1 X189.258 Y138.91 E2.63453
G1 X189.855 Y138.97 E2.65448
G1 X190.405 Y139.116 E2.67341
G1 X190.868 Y139.318 E2.69021
G1 X191.35 Y139.62 E2.70913
G1 X191.823 Y140.039 E2.73015
G1 X192.178 Y140.481 E2.749
G1 X192.461 Y140.975 E2.76794
G1 X192.694 Y141.594 E2.78993
G1 X192.923 Y142.742 E2.82887
G1 X193.078 Y143.635 E2.85902
G1 X193.417 Y147.151 E2.9765
G1 X193.429 Y147.916 E3.00195
G1 X193.429 Y154.014 E3.20477
G1 X193.417 Y154.836 E3.23211
G1 X193.234 Y156.847 E3.29927
G1 X193.087 Y158.267 E3.34675
G1 X192.981 Y158.949 E3.36971
G1 X192.739 Y160.183 E3.41154
G1 X192.573 Y160.76 E3.4315
G1 X192.331 Y161.274 E3.4504
G1 X192.011 Y161.744 E3.46931
G1 X191.621 Y162.157 E3.48821
G1 X191.172 Y162.505 E3.5071
G1 X190.672 Y162.777 E3.52603
G1 X190.136 Y162.967 E3.54495
G1 X189.484 Y163.087 E3.56699
G1 X188.628 Y163.1 E3.59547
G1 X184.48 Y163.1 E3.73343
G1 X183.611 Y163.086 E3.76234
G1 X181.713 Y162.891 E3.8258
G1 X178.931 Y162.655 E3.91866
G1 X176.242 Y162.506 E4.00823
G1 X173.49 Y162.431 E4.0998
G1 X170.795 Y162.433 E4.18944
G1 X168.04 Y162.514 E4.28111
G1 X165.32 Y162.67 E4.37172
G1 X162.619 Y162.903 E4.46189
G1 X161.043 Y163.072 E4.51461
G1 X160.445 Y163.098 E4.53452
G1 X141.967 Y163.1 E5.1491
G1 X141.1 Y163.086 E5.17794
G1 X139.156 Y162.886 E5.24294
G1 X136.384 Y162.653 E5.33546
G1 X133.687 Y162.504 E5.4253
G1 X130.939 Y162.43 E5.51673
G1 X128.243 Y162.434 E5.6064
G1 X125.488 Y162.516 E5.69808
G1 X122.787 Y162.671 E5.78806
G1 X118.495 Y163.076 E5.93145
G1 X117.94 Y163.099 E5.94992
G1 X113.441 Y163.1 E6.09956
G1 X112.743 Y163.09 E6.12278
G1 X112.146 Y163.03 E6.14273
G1 X111.596 Y162.884 E6.16166
G1 X111.132 Y162.682 E6.17849
G1 X110.651 Y162.38 E6.19738
G1 X110.178 Y161.961 E6.2184
G1 X109.823 Y161.519 E6.23725
G1 X109.54 Y161.025 E6.25619
G1 X109.307 Y160.406 E6.27819
G1 X109.069 Y159.211 E6.31871
G1 X108.919 Y158.343 E6.34801
G1 X108.868 Y157.754 E6.36767
G1 X108.677 Y155.913 E6.42924
G1 X108.593 Y154.956 E6.46119
G1 X108.571 Y154.361 E6.48099
G1 X108.571 Y147.987 E6.69299
G1 X108.583 Y147.157 E6.7206
G1 X108.77 Y145.124 E6.7885
G1 X108.958 Y143.368 E6.84724
G1 X109.262 Y141.817 E6.89981
G1 X109.428 Y141.24 E6.91978
G1 X109.669 Y140.726 E6.93866
G1 X109.99 Y140.255 E6.95762
G1 X110.38 Y139.841 E6.97654
G0 F1800 X110.627 Y140.156
G1 F1200 X111.025 Y139.844 E6.99336
G1 X111.467 Y139.599 E7.01016
G1 X111.942 Y139.426 E7.02698
G1 X112.523 Y139.313 E7.04666
G1 X113.377 Y139.3 E7.07507
G1 X117.514 Y139.3 E7.21267
G1 X118.348 Y139.312 E7.24041
G1 X120.253 Y139.508 E7.30411
G1 X123.035 Y139.743 E7.39697
G1 X125.747 Y139.894 E7.48731
G1 X128.499 Y139.969 E7.57887
G1 X131.217 Y139.967 E7.66927
G1 X133.972 Y139.886 E7.76094
G1 X136.714 Y139.729 E7.85229
G1 X139.415 Y139.496 E7.94246
G1 X140.975 Y139.328 E7.99465
G1 X141.555 Y139.302 E8.01396
G1 X160.027 Y139.3 E8.62834
G1 X160.859 Y139.312 E8.65601
G1 X162.811 Y139.513 E8.72128
G1 X165.583 Y139.745 E8.8138
G1 X168.302 Y139.896 E8.90438
G1 X171.051 Y139.97 E8.99584
G1 X173.769 Y139.966 E9.08624
G1 X176.524 Y139.884 E9.17791
G1 X179.247 Y139.727 E9.26863
G1 X183.537 Y139.323 E9.41195
G1 X184.066 Y139.301 E9.42956
G1 X188.552 Y139.3 E9.57876
G1 X189.252 Y139.31 E9.60205
G1 X189.755 Y139.357 E9.61885
G1 X190.245 Y139.483 E9.63568
G1 X190.708 Y139.685 E9.65248
G1 X191.135 Y139.957 E9.66932
G1 X191.513 Y140.292 E9.68612
G1 X191.833 Y140.683 E9.70292
G1 X192.088 Y141.12 E9.71975
G1 X192.302 Y141.672 E9.73944
G1 X192.529 Y142.811 E9.77807
G1 X192.68 Y143.674 E9.80721
G1 X193.017 Y147.157 E9.9236
G1 X193.029 Y147.922 E9.94904
G1 X193.029 Y154.008 E10.15146
G1 X193.017 Y154.83 E10.17881
G1 X192.836 Y156.806 E10.2448
G1 X192.692 Y158.205 E10.29158
G1 X192.588 Y158.872 E10.31403
G1 X192.346 Y160.106 E10.35586
G1 X192.21 Y160.593 E10.37268
G1 X191.999 Y161.052 E10.38948
G1 X191.718 Y161.472 E10.40628
G1 X191.374 Y161.843 E10.42311
G1 X190.977 Y162.155 E10.43991
G1 X190.535 Y162.401 E10.45673
G1 X190.06 Y162.574 E10.47354
G1 X189.478 Y162.687 E10.49326
G1 X188.622 Y162.7 E10.52174
G1 X184.486 Y162.7 E10.6593
G1 X183.652 Y162.688 E10.68704
G1 X181.747 Y162.492 E10.75074
G1 X178.965 Y162.257 E10.8436
G1 X176.253 Y162.106 E10.93394
G1 X173.501 Y162.031 E11.0255
G1 X170.783 Y162.033 E11.11591
G1 X168.028 Y162.114 E11.20758
G1 X165.286 Y162.271 E11.29893
G1 X162.585 Y162.504 E11.3891
G1 X161.025 Y162.672 E11.44128
G1 X160.445 Y162.698 E11.46059
G1 X141.973 Y162.7 E12.07497
G1 X141.141 Y162.688 E12.10265
G1 X139.189 Y162.487 E12.16791
G1 X136.417 Y162.255 E12.26043
G1 X133.698 Y162.104 E12.35101
G1 X130.949 Y162.03 E12.44247
G1 X128.231 Y162.034 E12.53287
G1 X125.476 Y162.116 E12.62455
G1 X122.753 Y162.273 E12.71526
G1 X118.478 Y162.676 E12.85808
G1 X117.94 Y162.699 E12.87599
G1 X113.447 Y162.7 E13.02543
G1 X112.749 Y162.69 E13.04865
G1 X112.246 Y162.643 E13.06545
G1 X111.756 Y162.517 E13.08228
G1 X111.292 Y162.315 E13.09911
G1 X110.866 Y162.043 E13.11592
G1 X110.488 Y161.708 E13.13272
G1 X110.168 Y161.317 E13.14952
G1 X109.913 Y160.88 E13.16635
G1 X109.699 Y160.328 E13.18604
G1 X109.463 Y159.143 E13.22623
G1 X109.318 Y158.308 E13.25442
G1 X109.267 Y157.719 E13.27408
G1 X109.075 Y155.878 E13.33565
G1 X108.993 Y154.941 E13.36693
G1 X108.971 Y154.346 E13.38673
G1 X108.971 Y147.993 E13.59804
G1 X108.983 Y147.163 E13.62564
G1 X109.164 Y145.193 E13.69144
G1 X109.18 Y145.101 E13.69455
G1 X109.351 Y143.445 E13.74992
G1 X109.655 Y141.894 E13.80249
G1 X109.791 Y141.407 E13.81931
G1 X110.002 Y140.948 E13.83611
G1 X110.283 Y140.527 E13.85294
G1 X110.627 Y140.156 E13.86977
G1 F1500 E7.36977
G1 F600 Z0.3
G0 F1800 X112.953 Y142.7 Z0.3
G1 F600 Z0.2
G1 F1500 E13.86977
G1 F1200 X117.975 Y142.7 E14.0368
G1 X117.975 Y143.336 E14.05796
G1 X117.967 Y143.339 E14.05824
G1 X117.891 Y143.455 E14.06285
G1 X117.729 Y144.163 E14.08701
G1 X117.724 Y144.194 E14.08805
G1 X117.665 Y145.042 E14.11633
G1 X117.665 Y145.05 E14.11659
G1 X117.637 Y145.998 E14.14814
G1 X117.637 Y146.005 E14.14837
G1 X117.715 Y157.25 E14.52239
G1 X117.717 Y157.274 E14.52319
G1 X117.872 Y158.525 E14.56512
G1 X117.925 Y158.638 E14.56927
G1 X117.974 Y158.659 E14.57104
G1 X117.974 Y159.3 E14.59236
G1 X112.953 Y159.3 E14.75936
G1 X112.685 Y157.88 E14.80742
G1 X112.685 Y157.123 E14.8326
G1 X112.683 Y157.095 E14.83353
G1 X112.451 Y155.445 E14.88895
G1 X112.371 Y154.657 E14.9153
G1 X112.371 Y147.339 E15.1587
G1 X112.481 Y146.315 E15.19295
G1 X112.683 Y144.873 E15.24138
G1 X112.685 Y144.845 E15.24231
G1 X112.685 Y144.12 E15.26643
G1 X112.953 Y142.7 E15.31449
G0 F1800 X113.285 Y143.1
G1 F1200 X117.575 Y143.1 E15.45718
G1 X117.575 Y143.196 E15.46037
G1 X117.552 Y143.226 E15.46163
G1 X117.501 Y143.366 E15.46658
G1 X117.339 Y144.074 E15.49074
G1 X117.325 Y144.166 E15.49383
G1 X117.266 Y145.014 E15.52211
G1 X117.265 Y145.038 E15.52291
G1 X117.237 Y145.986 E15.55445
G1 X117.237 Y146.008 E15.55518
G1 X117.315 Y157.253 E15.9292
G1 X117.32 Y157.323 E15.93153
G1 X117.475 Y158.574 E15.97346
G1 X117.54 Y158.782 E15.98071
G1 X117.574 Y158.825 E15.98253
G1 X117.574 Y158.9 E15.98503
G1 X113.285 Y158.9 E16.12768
G1 X113.085 Y157.843 E16.16346
G1 X113.085 Y157.123 E16.18741
G1 X113.079 Y157.039 E16.19021
G1 X112.849 Y155.406 E16.24506
G1 X112.771 Y154.635 E16.27083
G1 X112.771 Y147.367 E16.51257
G1 X112.88 Y146.351 E16.54655
G1 X113.079 Y144.928 E16.59434
G1 X113.085 Y144.845 E16.59711
G1 X113.085 Y144.157 E16.61999
G1 X113.285 Y143.1 E16.65577
G0 F1800 X113.616 Y143.5
G1 F1200 X117.06 Y143.5 E16.77032
G1 X116.949 Y143.985 E16.78687
G1 X116.926 Y144.139 E16.79205
G1 X116.867 Y144.987 E16.82032
G1 X116.865 Y145.026 E16.82162
G1 X116.837 Y145.974 E16.85316
G1 X116.837 Y146.011 E16.85439
G1 X116.915 Y157.256 E17.22841
G1 X116.923 Y157.372 E17.23228
G1 X117.063 Y158.5 E17.27009
G1 X113.616 Y158.5 E17.38473
G1 X113.485 Y157.805 E17.40826
G1 X113.485 Y157.123 E17.43094
G1 X113.475 Y156.984 E17.43558
G1 X113.247 Y155.363 E17.49002
G1 X113.171 Y154.615 E17.51503
G1 X113.171 Y147.382 E17.7556
G1 X113.277 Y146.394 E17.78865
G1 X113.475 Y144.984 E17.836
G1 X113.485 Y144.845 E17.84064
G1 X113.485 Y144.195 E17.86226
G1 X113.616 Y143.5 E17.88578
G1 F1500 E11.38578
G1 F600 Z0.3
G0 F1800 X129.433 Y147.624 Z0.3
G1 F600 Z0.2
G1 F1500 E17.88578
G1 F1200 X129.502 Y147.503 E17.89041
G1 X129.522 Y147.311 E17.89684
G1 X129.961 Y147.311 E17.91144
G1 X130.015 Y147.338 E17.91344
G1 X130.031 Y147.338 E17.91398
G1 X130.054 Y147.407 E17.9164
G1 X130.166 Y147.482 E17.92088
G1 X130.249 Y147.503 E17.92373
G1 X130.254 Y147.517 E17.92422
G1 X130.353 Y147.588 E17.92827
G1 X131.136 Y147.843 E17.95566
G1 X131.159 Y147.849 E17.95645
G1 X132.1 Y148.034 E17.98835
G1 X132.1 Y154.008 E18.18705
G1 X131.761 Y154.049 E18.1984
G1 X131.732 Y154.055 E18.19939
G1 X130.792 Y154.313 E18.23181
G1 X130.777 Y154.318 E18.23233
G1 X130.148 Y154.547 E18.2546
G1 X130.049 Y154.624 E18.25877
G1 X130.038 Y154.662 E18.26009
G1 X130.016 Y154.662 E18.26082
G1 X129.94 Y154.687 E18.26348
G1 X129.521 Y154.687 E18.27741
G1 X129.501 Y154.496 E18.2838
G1 X129.45 Y154.382 E18.28796
G1 X129.434 Y154.375 E18.28854
G1 X129.396 Y154.023 E18.30031
G1 X129.344 Y153.909 E18.30448
G1 X129.31 Y153.317 E18.3242
G1 X129.264 Y153.201 E18.32835
G1 X129.256 Y153.197 E18.32865
G1 X129.255 Y148.814 E18.47443
G1 X129.326 Y148.679 E18.4795
G1 X129.348 Y148.063 E18.5
G1 X129.396 Y147.98 E18.50319
G1 X129.433 Y147.624 E18.5151
G0 F1800 X129.819 Y147.78
G1 F1200 X129.837 Y147.757 E18.51607
G1 X129.841 Y147.745 E18.51649
G1 X129.941 Y147.822 E18.52069
G1 X130.069 Y147.87 E18.52523
G1 X130.082 Y147.873 E18.52568
G1 X130.229 Y147.969 E18.53152
G1 X131.012 Y148.224 E18.55891
G1 X131.082 Y148.242 E18.56131
G1 X131.7 Y148.364 E18.58226
G1 X131.7 Y153.655 E18.75824
G1 X131.626 Y153.669 E18.76075
G1 X130.686 Y153.927 E18.79317
G1 X130.64 Y153.942 E18.79478
G1 X130.011 Y154.171 E18.81704
G1 X129.844 Y154.269 E18.82348
G1 X129.837 Y154.245 E18.82431
G1 X129.82 Y154.223 E18.82524
G1 X129.794 Y153.98 E18.83336
G1 X129.737 Y153.79 E18.83996
G1 X129.709 Y153.295 E18.85645
G1 X129.657 Y153.083 E18.86371
G1 X129.655 Y148.952 E19.00111
G1 X129.66 Y148.946 E19.00137
G1 X129.726 Y148.694 E19.01003
G1 X129.744 Y148.188 E19.02687
G1 X129.794 Y148.022 E19.03264
G1 X129.819 Y147.78 E19.04073
G1 F1500 E12.54073
G1 F600 Z0.3
G0 F1800 X130.125 Y148.708 Z0.3
G1 F600 Z0.2
G1 F1500 E19.04073
G1 F1200 X130.138 Y148.36 E19.05231
G1 X130.888 Y148.604 E19.07855
G1 X131.005 Y148.634 E19.08256
G1 X131.3 Y148.692 E19.09256
G1 X131.3 Y153.344 E19.24729
G1 X130.58 Y153.542 E19.27213
G1 X130.503 Y153.566 E19.27481
G1 X130.132 Y153.701 E19.28794
G1 X130.108 Y153.272 E19.30223
G1 X130.056 Y153.011 E19.31108
G1 X130.055 Y148.997 E19.44459
G1 X130.125 Y148.708 E19.45448
G1 F1500 E12.95448
G1 F600 Z0.3
G0 F1800 X141.9 Y142.7 Z0.3
G1 F600 Z0.2
G1 F1500 E19.45448
G1 F1200 X160.1 Y142.7 E20.05981
G1 X160.1 Y159.3 E20.61193
G1 X141.9 Y159.3 E21.21727
G1 X141.9 Y142.7 E21.76938
G0 F1800 X142.3 Y143.1
G1 F1200 X159.7 Y143.1 E22.34811
G1 X159.7 Y158.9 E22.87362
G1 X142.3 Y158.9 E23.45235
G1 X142.3 Y143.1 E23.97786
G0 F1800 X142.7 Y143.5
G1 F1200 X159.3 Y143.5 E24.52998
G1 X159.3 Y158.5 E25.02888
G1 X142.7 Y158.5 E25.581
G1 X142.7 Y143.5 E26.0799
G1 F1500 E19.5799
G1 F600 Z0.3
G0 F1800 X169.9 Y148.001 Z0.3
G1 F600 Z0.2
G1 F1500 E26.0799
G1 F1200 X170.561 Y147.914 E26.10207
G1 X170.595 Y147.907 E26.10323
G1 X171.644 Y147.579 E26.13978
G1 X171.745 Y147.506 E26.14393
G1 X171.748 Y147.497 E26.14424
G1 X171.844 Y147.467 E26.14759
G1 X171.946 Y147.394 E26.15176
G1 X171.964 Y147.339 E26.15368
G1 X171.984 Y147.339 E26.15435
G1 X172.063 Y147.313 E26.15712
G1 X172.478 Y147.313 E26.17092
G1 X172.498 Y147.503 E26.17727
G1 X172.549 Y147.617 E26.18143
G1 X172.566 Y147.625 E26.18205
G1 X172.605 Y147.979 E26.1939
G1 X172.655 Y148.088 E26.19789
G1 X172.69 Y148.68 E26.21761
G1 X172.736 Y148.796 E26.22176
G1 X172.744 Y148.8 E26.22206
G1 X172.745 Y153.213 E26.36884
G1 X172.687 Y153.32 E26.37288
G1 X172.654 Y153.943 E26.39363
G1 X172.61 Y154.018 E26.39653
G1 X172.568 Y154.377 E26.40855
G1 X172.501 Y154.494 E26.41303
G1 X172.48 Y154.688 E26.41952
G1 X172.037 Y154.688 E26.43426
G1 X171.985 Y154.662 E26.43619
G1 X171.958 Y154.662 E26.43709
G1 X171.943 Y154.615 E26.43873
G1 X171.855 Y154.548 E26.44241
G1 X171.174 Y154.282 E26.46672
G1 X171.148 Y154.274 E26.46763
G1 X170.219 Y154.048 E26.49943
G1 X170.198 Y154.044 E26.50014
G1 X169.9 Y154.005 E26.51014
G1 X169.9 Y148.001 E26.70983
G0 F1800 X170.3 Y148.352
G1 F1200 X170.613 Y148.311 E26.72033
G1 X170.714 Y148.289 E26.72377
G1 X171.763 Y147.961 E26.76032
G1 X171.956 Y147.859 E26.76758
G1 X171.967 Y147.846 E26.76815
G1 X172.157 Y147.746 E26.77529
G1 X172.162 Y147.754 E26.7756
G1 X172.181 Y147.779 E26.77665
G1 X172.208 Y148.022 E26.78478
G1 X172.261 Y148.202 E26.79102
G1 X172.291 Y148.703 E26.80771
G1 X172.343 Y148.915 E26.81498
G1 X172.345 Y153.087 E26.95374
G1 X172.288 Y153.299 E26.96104
G1 X172.26 Y153.815 E26.97823
G1 X172.213 Y153.972 E26.98368
G1 X172.185 Y154.218 E26.99191
G1 X172.166 Y154.242 E26.99293
G1 X172.154 Y154.281 E26.99429
G1 X172 Y154.175 E27.0005
G1 X171.319 Y153.909 E27.02482
G1 X171.243 Y153.885 E27.02747
G1 X170.314 Y153.659 E27.05927
G1 X170.3 Y153.656 E27.05975
G1 X170.3 Y148.352 E27.23616
G0 F1800 X170.7 Y148.699
G1 F1200 X170.833 Y148.67 E27.24069
G1 X171.869 Y148.346 E27.27679
G1 X171.892 Y148.727 E27.28949
G1 X171.944 Y148.984 E27.29821
G1 X171.945 Y153.053 E27.43354
G1 X171.888 Y153.278 E27.44126
G1 X171.866 Y153.694 E27.45512
G1 X171.465 Y153.537 E27.46944
G1 X171.337 Y153.496 E27.47391
G1 X170.7 Y153.341 E27.49572
G1 X170.7 Y148.699 E27.65011
G1 F1500 E21.15011
G1 F600 Z0.3
G0 F1800 X184.227 Y144.523 Z0.3
G1 F600 Z0.2
G1 F1500 E27.65011
G1 F1200 X184.225 Y144.499 E27.65091
G1 X184.091 Y143.474 E27.68529
G1 X184.037 Y143.361 E27.68946
G1 X184.026 Y143.356 E27.68986
G1 X184.026 Y142.7 E27.71168
G1 X189.047 Y142.7 E27.87868
G1 X189.319 Y144.137 E27.92732
G1 X189.406 Y145.321 E27.96681
G1 X189.406 Y145.328 E27.96704
G1 X189.629 Y147.346 E28.03457
G1 X189.629 Y154.657 E28.27773
G1 X189.518 Y155.704 E28.31275
G1 X189.317 Y157.234 E28.36408
G1 X189.315 Y157.26 E28.36494
G1 X189.315 Y157.88 E28.38556
G1 X189.047 Y159.3 E28.43363
